;FLAVOR:Marlin
;TIME:3612
;Filament used: 3.28757m
;Layer height: 0.2
;MINX:14.1
;MINY:74.591
;MINZ:0.3
;MAXX:205.9
;MAXY:144.2
;MAXZ:19.5
;Generated with Cura_SteamEngine 4.8.0
M140 S60
M105
M190 S60
M104 S197
M105
M109 S197
M82 ;absolute extrusion mode
G28 ;Home
G1 Z15.0 F2000 ;Move the platform
G92 E0
G92 E0
G1 F1500 E-6.5
;LAYER_COUNT:97
;LAYER:0
M106 S63.8
M204 S1000
G0 F9000 X16.768 Y75.854 Z0.3
;TYPE:SKIRT
G1 F1500 E0
G1 F2700 X17.741 Y75.687 E0.04925
G1 X18.635 Y75.546 E0.09441
G1 X21.266 Y75.053 E0.22795
G1 X22.23 Y74.846 E0.27714
G1 X23.142 Y74.663 E0.32355
G1 X23.682 Y74.601 E0.35067
G1 X24.091 Y74.591 E0.37108
G1 X28.581 Y74.591 E0.59508
G1 X29.298 Y74.602 E0.63086
G1 X29.701 Y74.634 E0.65103
G1 X32.382 Y75.016 E0.78614
G1 X35.084 Y75.324 E0.92181
G1 X37.788 Y75.554 E1.0572
G1 X40.54 Y75.711 E1.19472
G1 X43.304 Y75.79 E1.33268
G1 X44.699 Y75.8 E1.40228
G1 X175.222 Y75.8 E7.91409
G1 X178.019 Y75.76 E8.05365
G1 X180.736 Y75.645 E8.18932
G1 X183.483 Y75.45 E8.32672
G1 X186.178 Y75.183 E8.46183
G1 X189.007 Y74.82 E8.60413
G1 X190.32 Y74.632 E8.6703
G1 X190.683 Y74.601 E8.68848
G1 X191.092 Y74.591 E8.70889
G1 X195.577 Y74.591 E8.93265
G1 X196.278 Y74.601 E8.96762
G1 X196.898 Y74.671 E8.99875
G1 X197.463 Y74.791 E9.02757
G1 X200.205 Y75.341 E9.16709
G1 X202.843 Y75.793 E9.30062
G1 X203.198 Y75.85 E9.31856
G1 X203.69 Y75.97 E9.34382
G1 X204.156 Y76.165 E9.36902
G1 X204.586 Y76.431 E9.39425
G1 X204.968 Y76.762 E9.41947
G1 X205.294 Y77.149 E9.44471
G1 X205.555 Y77.582 E9.46994
G1 X205.744 Y78.051 E9.49516
G1 X205.857 Y78.543 E9.52035
G1 X205.89 Y78.917 E9.53908
G1 X205.899 Y79.225 E9.55445
G1 X205.9 Y79.365 E9.56144
G1 X205.89 Y80.044 E9.59532
G1 X205.842 Y80.547 E9.62052
G1 X205.716 Y81.037 E9.64577
G1 X205.515 Y81.501 E9.67099
G1 X205.243 Y81.927 E9.69621
G1 X204.971 Y82.241 E9.71694
G1 X203.991 Y83.237 E9.78665
G1 X202.109 Y85.204 E9.92246
G1 X200.249 Y87.262 E10.06086
G1 X198.496 Y89.313 E10.19547
G1 X196.759 Y91.468 E10.33356
G1 X195.109 Y93.637 E10.46952
G1 X193.516 Y95.859 E10.60592
G1 X191.979 Y98.135 E10.74294
G1 X190.52 Y100.437 E10.87891
G1 X189.107 Y102.809 E11.01666
G1 X187.784 Y105.181 E11.15216
G1 X186.504 Y107.638 E11.29037
G1 X185.326 Y110.061 E11.42479
G1 X184.196 Y112.564 E11.5618
G1 X183.14 Y115.091 E11.69844
G1 X182.143 Y117.676 E11.83666
G1 X181.24 Y120.244 E11.97247
G1 X180.402 Y122.853 E12.10918
G1 X179.642 Y125.47 E12.24514
G1 X178.95 Y128.135 E12.38251
G1 X178.348 Y130.747 E12.51624
G1 X177.797 Y133.495 E12.65606
G1 X177.333 Y136.217 E12.79382
G1 X176.957 Y138.867 E12.92736
G1 X176.696 Y141.163 E13.04264
G1 X176.664 Y141.407 E13.05492
G1 X176.559 Y141.902 E13.08017
G1 X176.377 Y142.373 E13.10536
G1 X176.123 Y142.811 E13.13062
G1 X175.804 Y143.203 E13.15583
G1 X175.427 Y143.539 E13.18103
G1 X175.001 Y143.812 E13.20627
G1 X174.538 Y144.015 E13.23149
G1 X174.049 Y144.142 E13.2567
G1 X173.581 Y144.19 E13.28017
G1 X173.17 Y144.2 E13.30068
G1 X47.16 Y144.2 E19.58734
G1 X46.482 Y144.19 E19.62117
G1 X45.978 Y144.142 E19.64643
G1 X45.489 Y144.016 E19.67162
G1 X45.025 Y143.815 E19.69685
G1 X44.599 Y143.543 E19.72207
G1 X44.322 Y143.307 E19.74022
G1 X44.301 Y143.287 E19.74167
G1 X43.964 Y142.911 E19.76686
G1 X43.69 Y142.486 E19.79209
G1 X43.486 Y142.023 E19.81733
G1 X43.329 Y141.335 E19.85254
G1 X43.193 Y140.153 E19.9119
G1 X42.836 Y137.384 E20.05119
G1 X42.411 Y134.692 E20.18715
G1 X41.908 Y132.001 E20.32373
G1 X41.334 Y129.348 E20.45915
G1 X40.663 Y126.617 E20.59946
G1 X39.949 Y124.034 E20.73316
G1 X39.143 Y121.408 E20.8702
G1 X38.262 Y118.804 E21.00735
G1 X37.313 Y116.238 E21.14384
G1 X36.302 Y113.728 E21.27884
G1 X35.193 Y111.182 E21.41739
G1 X34.027 Y108.702 E21.55411
G1 X32.821 Y106.313 E21.68762
G1 X31.475 Y103.825 E21.82875
G1 X30.131 Y101.5 E21.96273
G1 X28.702 Y99.183 E22.09854
G1 X27.179 Y96.862 E22.23704
G1 X25.617 Y94.623 E22.37324
G1 X24.004 Y92.443 E22.50854
G1 X22.309 Y90.284 E22.64548
G1 X20.537 Y88.155 E22.78367
G1 X18.754 Y86.131 E22.91824
G1 X16.862 Y84.101 E23.05669
G1 X15.128 Y82.344 E23.17985
G1 X14.898 Y82.085 E23.19713
G1 X14.802 Y81.964 E23.20483
G1 X14.52 Y81.544 E23.23007
G1 X14.308 Y81.085 E23.2553
G1 X14.17 Y80.599 E23.2805
G1 X14.11 Y80.071 E23.30701
G1 X14.101 Y79.77 E23.32204
G1 X14.1 Y79.626 E23.32922
G1 X14.11 Y78.96 E23.36245
G1 X14.158 Y78.457 E23.38766
G1 X14.284 Y77.967 E23.4129
G1 X14.486 Y77.503 E23.43815
G1 X14.758 Y77.077 E23.46337
G1 X15.094 Y76.7 E23.48856
G1 X15.485 Y76.379 E23.5138
G1 X15.922 Y76.125 E23.53902
G1 X16.393 Y75.942 E23.56423
G1 X16.768 Y75.854 E23.58344
G1 F1500 E17.08344
G0 F9000 X23.096 Y77.991
G0 X23.961 Y77.991
;TYPE:SUPPORT
G1 F1500 E23.58344
G1 F2700 X29.039 Y77.991 E23.83679
G1 X29.039 Y78.8 E23.87715
G1 X23.961 Y78.8 E24.13049
G1 X23.961 Y77.991 E24.17085
G0 F9000 X26.67 Y78.071
G1 F2700 X26.67 Y78.72 E24.20323
G0 F9000 X26.338 Y80.2
G1 F2700 X27.116 Y80.22 E24.24206
G1 X27.719 Y80.238 E24.27215
G1 X28.941 Y80.352 E24.33338
G1 X29.039 Y80.367 E24.33833
G1 X29.039 Y81.163 E24.37804
G1 X27.646 Y81.052 E24.44776
G1 X26.959 Y81.026 E24.48206
G1 X26.424 Y81.009 E24.50876
G1 X23.962 Y81.009 E24.63159
G1 X23.961 Y80.2 E24.67195
G1 X26.338 Y80.2 E24.79054
G0 F9000 X26.67 Y80.289
G1 F2700 X26.67 Y80.936 E24.82282
G1 F1500 E18.32282
G0 F9000 X26.927 Y81.89
G0 X43.789 Y92.152
G0 X44.654 Y92.152
G1 F1500 E24.82282
G1 F2700 X44.666 Y92.149 E24.82344
G1 X44.914 Y92.722 E24.85459
G1 X45.327 Y93.87 E24.91546
G1 X45.678 Y95.071 E24.97788
G1 X45.947 Y96.277 E25.03953
G1 X46.145 Y97.535 E25.10306
G1 X46.248 Y98.607 E25.15679
G1 X44.654 Y98.607 E25.23632
G1 X44.654 Y92.152 E25.55836
G0 F9000 X44.733 Y93.345
G1 F2700 X45.053 Y93.345 E25.57432
G0 F9000 X45.339 Y94.197
G1 F2700 X45.339 Y98.527 E25.79035
G0 F9000 X45.805 Y96.012
G1 F2700 X44.733 Y96.012 E25.84383
G1 F1500 E19.34383
G0 F9000 X43.789 Y96.012
G0 X43.801 Y99.46
G0 X45.839 Y141.157
G0 X46.343 Y141.661
G0 X173.657 Y141.661
G0 X174.11 Y141.208
G0 X190.097 Y81.162
G0 X190.962 Y81.162
G1 F1500 E25.84383
G1 F2700 X190.962 Y80.367 E25.88349
G1 X191.146 Y80.346 E25.89273
G1 X192.252 Y80.239 E25.94817
G1 X193.475 Y80.201 E26.00921
G1 X196.039 Y80.201 E26.13713
G1 X196.039 Y81.009 E26.17744
G1 X194.195 Y81.009 E26.26944
G1 X193.838 Y80.903 E26.28802
G1 X192.203 Y81.064 E26.36998
G1 X190.962 Y81.162 E26.43209
G0 F9000 X192.024 Y80.999
G1 F2700 X192.024 Y80.341 E26.46492
G0 F9000 X194.691 Y80.281
G1 F2700 X194.691 Y80.929 E26.49725
G0 F9000 X196.039 Y78.8
G1 F2700 X190.962 Y78.8 E26.75054
G1 X190.962 Y77.991 E26.7909
G1 X196.038 Y77.991 E27.04414
G1 X196.039 Y78.8 E27.0845
G0 F9000 X194.691 Y78.72
G1 F2700 X194.691 Y78.071 E27.11688
G0 F9000 X192.024 Y78.071
G1 F2700 X192.024 Y78.72 E27.14926
G1 F1500 E20.64926
;MESH:cytroncase_v2.stl
G0 F9000 X192.024 Y77.126
G0 X190.109 Y77.138
G0 X190.1 Y78.002
G0 X155.046 Y93.982
G0 X159.247 Y94.028
G0 X159.247 Y125.972
G0 X84.781 Y126.015
G0 X67.635 Y133.833
G0 X69.069 Y134.122
G0 X67.59 Y135.732
;TYPE:WALL-INNER
G1 F1500 E27.14926
G1 F2700 X67.968 Y135.509 E27.17116
G1 X68.283 Y135.232 E27.19209
G1 X68.551 Y134.891 E27.21372
G1 X68.755 Y134.504 E27.23555
G1 X68.881 Y134.083 E27.25747
G1 X68.927 Y133.648 E27.2793
G1 X68.89 Y133.213 E27.30108
G1 X68.773 Y132.79 E27.32297
G1 X68.577 Y132.398 E27.34484
G1 X68.312 Y132.049 E27.3667
G1 X67.97 Y131.742 E27.38963
G1 X67.59 Y131.519 E27.41161
G1 X67.179 Y131.37 E27.43342
G1 X66.744 Y131.301 E27.4554
G1 X66.308 Y131.317 E27.47716
G1 X65.881 Y131.411 E27.49898
G1 X65.478 Y131.585 E27.52088
G1 X65.117 Y131.831 E27.54267
G1 X64.82 Y132.125 E27.56352
G1 X64.572 Y132.484 E27.58529
G1 X64.393 Y132.885 E27.6072
G1 X64.3 Y133.291 E27.62798
G1 X64.28 Y133.472 E27.63706
G1 X64.288 Y133.893 E27.65807
G1 X64.379 Y134.322 E27.67995
G1 X64.549 Y134.726 E27.70182
G1 X64.792 Y135.092 E27.72373
G1 X65.114 Y135.417 E27.74656
G1 X65.478 Y135.665 E27.76853
G1 X65.881 Y135.839 E27.79043
G1 X66.308 Y135.933 E27.81225
G1 X66.744 Y135.949 E27.83401
G1 X67.179 Y135.88 E27.85599
G1 X67.59 Y135.732 E27.87778
G0 F9000 X67.419 Y135.368
;TYPE:WALL-OUTER
G1 F2700 X67.732 Y135.184 E27.89589
G1 X67.991 Y134.956 E27.91311
G1 X68.214 Y134.672 E27.93112
G1 X68.383 Y134.352 E27.94918
G1 X68.487 Y134.004 E27.9673
G1 X68.525 Y133.644 E27.98536
G1 X68.495 Y133.284 E28.00338
G1 X68.398 Y132.934 E28.0215
G1 X68.236 Y132.61 E28.03957
G1 X68.017 Y132.321 E28.05766
G1 X67.733 Y132.067 E28.07667
G1 X67.419 Y131.882 E28.09486
G1 X67.079 Y131.759 E28.11289
G1 X66.72 Y131.702 E28.13103
G1 X66.359 Y131.715 E28.14905
G1 X66.005 Y131.793 E28.16714
G1 X65.672 Y131.937 E28.18524
G1 X65.372 Y132.141 E28.20334
G1 X65.128 Y132.383 E28.22048
G1 X64.922 Y132.681 E28.23855
G1 X64.774 Y133.012 E28.25664
G1 X64.695 Y133.358 E28.27435
G1 X64.68 Y133.491 E28.28103
G1 X64.687 Y133.847 E28.29879
G1 X64.762 Y134.202 E28.31689
G1 X64.903 Y134.536 E28.33498
G1 X65.104 Y134.838 E28.35308
G1 X65.371 Y135.108 E28.37202
G1 X65.672 Y135.313 E28.39019
G1 X66.005 Y135.457 E28.40829
G1 X66.359 Y135.535 E28.42638
G1 X66.72 Y135.548 E28.4444
G1 X67.079 Y135.491 E28.46254
G1 X67.419 Y135.368 E28.48057
G0 F9000 X67.591 Y135.267
G0 X67.813 Y135.646
G1 F1500 E21.98057
G0 F9000 X68.606 Y134.443
G0 X68.765 Y133.646
G0 X68.623 Y132.848
G0 X68.194 Y132.158
G0 X66.756 Y131.109
G0 X66.67 Y132.569
G0 X66.679 Y126.04
G0 X54.753 Y125.972
G0 X54.753 Y94.028
G0 X66.726 Y93.959
G0 X66.737 Y87.424
G0 X66.917 Y88.873
G0 X67.319 Y88.589
;TYPE:WALL-INNER
G1 F1500 E28.48057
G1 F2700 X67.722 Y88.415 E28.50247
G1 X68.084 Y88.169 E28.52431
G1 X68.379 Y87.875 E28.54509
G1 X68.628 Y87.518 E28.5668
G1 X68.807 Y87.115 E28.5888
G1 X68.905 Y86.69 E28.61056
G1 X68.925 Y86.253 E28.63239
G1 X68.86 Y85.819 E28.65428
G1 X68.716 Y85.406 E28.6761
G1 X68.497 Y85.025 E28.69803
G1 X68.207 Y84.692 E28.72006
G1 X67.849 Y84.412 E28.74273
G1 X67.457 Y84.21 E28.76473
G1 X67.036 Y84.089 E28.78659
G1 X66.6 Y84.047 E28.80844
G1 X66.164 Y84.089 E28.83029
G1 X65.743 Y84.21 E28.85215
G1 X65.352 Y84.41 E28.87406
G1 X65.008 Y84.678 E28.89581
G1 X64.73 Y84.99 E28.91666
G1 X64.514 Y85.347 E28.93748
G1 X64.439 Y85.515 E28.94666
G1 X64.319 Y85.917 E28.96759
G1 X64.273 Y86.352 E28.98941
G1 X64.31 Y86.787 E29.01119
G1 X64.427 Y87.21 E29.03309
G1 X64.623 Y87.602 E29.05495
G1 X64.888 Y87.951 E29.07682
G1 X65.23 Y88.258 E29.09974
G1 X65.61 Y88.481 E29.12173
G1 X66.021 Y88.63 E29.14354
G1 X66.456 Y88.699 E29.16551
G1 X66.892 Y88.683 E29.18728
G1 X67.319 Y88.589 E29.20909
G0 F9000 X67.195 Y88.207
;TYPE:WALL-OUTER
G1 F2700 X67.528 Y88.063 E29.22719
G1 X67.828 Y87.859 E29.24529
G1 X68.071 Y87.617 E29.2624
G1 X68.278 Y87.32 E29.28046
G1 X68.426 Y86.988 E29.2986
G1 X68.507 Y86.635 E29.31666
G1 X68.524 Y86.274 E29.33469
G1 X68.47 Y85.915 E29.35281
G1 X68.351 Y85.573 E29.37087
G1 X68.17 Y85.258 E29.389
G1 X67.931 Y84.984 E29.40714
G1 X67.632 Y84.75 E29.42608
G1 X67.309 Y84.584 E29.4442
G1 X66.961 Y84.484 E29.46226
G1 X66.6 Y84.449 E29.48036
G1 X66.239 Y84.484 E29.49845
G1 X65.891 Y84.584 E29.51652
G1 X65.568 Y84.749 E29.53461
G1 X65.282 Y84.971 E29.55267
G1 X65.053 Y85.228 E29.56985
G1 X64.869 Y85.533 E29.58762
G1 X64.815 Y85.654 E29.59423
G1 X64.713 Y85.996 E29.61203
G1 X64.675 Y86.356 E29.63009
G1 X64.705 Y86.716 E29.64812
G1 X64.802 Y87.066 E29.66624
G1 X64.964 Y87.39 E29.68431
G1 X65.183 Y87.679 E29.7024
G1 X65.467 Y87.933 E29.72141
G1 X65.781 Y88.118 E29.73959
G1 X66.121 Y88.241 E29.75763
G1 X66.48 Y88.298 E29.77576
G1 X66.841 Y88.285 E29.79379
G1 X67.195 Y88.207 E29.81187
G0 F9000 X67.378 Y88.128
G0 X67.552 Y88.532
G1 F1500 E23.31187
G0 F9000 X68.795 Y87.613
G0 X67.521 Y86.896
G0 X146.501 Y86.933
G0 X145.259 Y87.703
G0 X146.821 Y88.63
;TYPE:WALL-INNER
G1 F1500 E29.81187
G1 F2700 X147.256 Y88.699 E29.83384
G1 X147.692 Y88.683 E29.85561
G1 X148.119 Y88.589 E29.87742
G1 X148.522 Y88.415 E29.89932
G1 X148.869 Y88.179 E29.92026
G1 X149.006 Y88.058 E29.92938
G1 X149.271 Y87.76 E29.94928
G1 X149.496 Y87.385 E29.97109
G1 X149.648 Y86.976 E29.99286
G1 X149.721 Y86.545 E30.01467
G1 X149.712 Y86.107 E30.03653
G1 X149.621 Y85.678 E30.05841
G1 X149.451 Y85.274 E30.08027
G1 X149.208 Y84.908 E30.10219
G1 X148.886 Y84.583 E30.12502
G1 X148.522 Y84.335 E30.14699
G1 X148.119 Y84.161 E30.16889
G1 X147.692 Y84.067 E30.1907
G1 X147.256 Y84.051 E30.21247
G1 X146.821 Y84.12 E30.23444
G1 X146.41 Y84.268 E30.25624
G1 X146.032 Y84.491 E30.27813
G1 X145.718 Y84.767 E30.29899
G1 X145.447 Y85.109 E30.32076
G1 X145.245 Y85.497 E30.34258
G1 X145.119 Y85.917 E30.36446
G1 X145.073 Y86.352 E30.38628
G1 X145.11 Y86.787 E30.40806
G1 X145.227 Y87.21 E30.42996
G1 X145.422 Y87.602 E30.4518
G1 X145.688 Y87.952 E30.47374
G1 X146.03 Y88.258 E30.49663
G1 X146.41 Y88.481 E30.51861
G1 X146.821 Y88.63 E30.54042
G0 F9000 X146.921 Y88.241
;TYPE:WALL-OUTER
G1 F2700 X147.28 Y88.298 E30.55856
G1 X147.641 Y88.285 E30.57658
G1 X147.995 Y88.207 E30.59467
G1 X148.328 Y88.063 E30.61277
G1 X148.623 Y87.862 E30.63057
G1 X148.723 Y87.774 E30.63722
G1 X148.947 Y87.522 E30.65404
G1 X149.134 Y87.211 E30.67215
G1 X149.26 Y86.872 E30.69019
G1 X149.32 Y86.515 E30.70825
G1 X149.313 Y86.153 E30.72631
G1 X149.238 Y85.798 E30.74442
G1 X149.097 Y85.464 E30.7625
G1 X148.896 Y85.162 E30.7806
G1 X148.629 Y84.892 E30.79955
G1 X148.328 Y84.687 E30.81772
G1 X147.995 Y84.543 E30.83582
G1 X147.641 Y84.465 E30.8539
G1 X147.28 Y84.452 E30.87192
G1 X146.921 Y84.509 E30.89006
G1 X146.581 Y84.632 E30.9081
G1 X146.268 Y84.816 E30.92621
G1 X146.009 Y85.044 E30.94342
G1 X145.784 Y85.328 E30.9615
G1 X145.617 Y85.648 E30.97951
G1 X145.513 Y85.996 E30.99763
G1 X145.475 Y86.356 E31.01569
G1 X145.505 Y86.716 E31.03371
G1 X145.602 Y87.066 E31.05183
G1 X145.763 Y87.39 E31.06988
G1 X145.983 Y87.679 E31.088
G1 X146.267 Y87.933 E31.10701
G1 X146.581 Y88.118 E31.12519
G1 X146.921 Y88.241 E31.14323
G0 F9000 X147.118 Y88.272
G0 X147.048 Y88.707
G1 F1500 E24.64323
G0 F9000 X148.178 Y88.771
G0 X147.724 Y87.382
G0 X148.178 Y94.04
G0 X148.178 Y92.585
G0 X160.328 Y92.947
G0 X160.5 Y127.225
;TYPE:WALL-INNER
G1 F1500 E31.14323
G1 F2700 X160.5 Y92.775 E32.86195
G1 X53.5 Y92.775 E38.2002
G1 X53.5 Y127.225 E39.91892
G1 X160.5 Y127.225 E45.25717
G0 F9000 X160.1 Y126.825
;TYPE:WALL-OUTER
G1 F2700 X160.1 Y93.175 E46.93598
G1 X53.9 Y93.175 E52.23432
G1 X53.9 Y126.825 E53.91312
G1 X160.1 Y126.825 E59.21146
G0 F9000 X160.1 Y126.625
G0 X160.54 Y126.625
G1 F1500 E52.71146
G0 F9000 X160.328 Y127.053
G0 X146.41 Y127.415
G0 X146.41 Y125.96
G0 X147.201 Y132.586
G0 X146.928 Y131.151
G0 X145.659 Y132.336
G0 X145.39 Y132.822
G0 X145.235 Y133.604
G0 X145.377 Y134.402
G0 X145.724 Y134.96
G0 X146.41 Y135.731
;TYPE:WALL-INNER
G1 F1500 E59.21146
G1 F2700 X146.821 Y135.88 E59.23327
G1 X147.256 Y135.949 E59.25525
G1 X147.692 Y135.933 E59.27701
G1 X148.119 Y135.839 E59.29883
G1 X148.522 Y135.665 E59.32073
G1 X148.884 Y135.419 E59.34256
G1 X149.179 Y135.125 E59.36334
G1 X149.428 Y134.768 E59.38505
G1 X149.607 Y134.365 E59.40705
G1 X149.705 Y133.94 E59.42881
G1 X149.725 Y133.503 E59.45064
G1 X149.66 Y133.069 E59.47253
G1 X149.516 Y132.655 E59.4944
G1 X149.296 Y132.274 E59.51635
G1 X148.995 Y131.93 E59.53916
G1 X148.648 Y131.659 E59.56112
G1 X148.256 Y131.46 E59.58305
G1 X147.836 Y131.339 E59.60486
G1 X147.4 Y131.297 E59.62671
G1 X146.964 Y131.339 E59.64857
G1 X146.544 Y131.46 E59.67037
G1 X146.152 Y131.659 E59.6923
G1 X145.807 Y131.928 E59.71413
G1 X145.53 Y132.239 E59.73491
G1 X145.314 Y132.597 E59.75577
G1 X145.239 Y132.765 E59.76495
G1 X145.119 Y133.167 E59.78588
G1 X145.073 Y133.602 E59.8077
G1 X145.11 Y134.037 E59.82948
G1 X145.227 Y134.46 E59.85138
G1 X145.422 Y134.852 E59.87322
G1 X145.688 Y135.202 E59.89515
G1 X146.03 Y135.508 E59.91805
G1 X146.41 Y135.731 E59.94003
G0 F9000 X146.581 Y135.368
;TYPE:WALL-OUTER
G1 F2700 X146.921 Y135.491 E59.95807
G1 X147.28 Y135.548 E59.9762
G1 X147.641 Y135.535 E59.99422
G1 X147.995 Y135.457 E60.01231
G1 X148.328 Y135.313 E60.03041
G1 X148.628 Y135.109 E60.04851
G1 X148.871 Y134.867 E60.06562
G1 X149.078 Y134.57 E60.08368
G1 X149.226 Y134.238 E60.10182
G1 X149.307 Y133.885 E60.11988
G1 X149.324 Y133.524 E60.13791
G1 X149.27 Y133.165 E60.15603
G1 X149.151 Y132.822 E60.17414
G1 X148.969 Y132.508 E60.19225
