;FLAVOR:Marlin
;TIME:6545
;Filament used: 9.35471m
;Layer height: 0.2
;MINX:44.5
;MINY:77
;MINZ:0.3
;MAXX:175.5
;MAXY:143
;MAXZ:14.9
;Generated with Cura_SteamEngine 4.8.0
M140 S60
M105
M190 S60
M104 S197
M105
M109 S197
M82 ;absolute extrusion mode
G28 ;Home
G1 Z15.0 F2000 ;Move the platform
G92 E0
G92 E0
G1 F1500 E-6.5
;LAYER_COUNT:74
;LAYER:0
M106 S63.8
M204 S1000
G0 F9000 X45.88 Y77.583 Z0.3
;TYPE:SKIRT
G1 F1500 E0
G1 F2700 X46.317 Y77.328 E0.02575
G1 X46.788 Y77.144 E0.05148
G1 X47.282 Y77.038 E0.07719
G1 X47.619 Y77.01 E0.0944
G1 X48.03 Y77 E0.11532
G1 X171.639 Y77 E6.40554
G1 X172.337 Y77.01 E6.44106
G1 X172.84 Y77.057 E6.46677
G1 X173.33 Y77.183 E6.49251
G1 X173.794 Y77.385 E6.51827
G1 X174.22 Y77.657 E6.54399
G1 X174.598 Y77.992 E6.56969
G1 X174.918 Y78.383 E6.5954
G1 X175.173 Y78.82 E6.62115
G1 X175.356 Y79.291 E6.64686
G1 X175.463 Y79.785 E6.67258
G1 X175.49 Y80.12 E6.68969
G1 X175.5 Y80.53 E6.71056
G1 X175.5 Y100.339 E7.7186
G1 X175.49 Y101.036 E7.75407
G1 X175.482 Y101.214 E7.76314
G1 X175.418 Y102.118 E7.80925
G1 X175.333 Y103.105 E7.85967
G1 X175.177 Y105.848 E7.99948
G1 X175.098 Y108.601 E8.13963
G1 X175.096 Y111.32 E8.27799
G1 X175.172 Y114.055 E8.41723
G1 X175.424 Y118.085 E8.62271
G1 X175.465 Y118.578 E8.64788
G1 X175.475 Y118.776 E8.65797
G1 X175.5 Y120.014 E8.72098
G1 X175.5 Y139.108 E9.69264
G1 X175.49 Y139.835 E9.72964
G1 X175.443 Y140.338 E9.75534
G1 X175.317 Y140.828 E9.78109
G1 X175.116 Y141.292 E9.80682
G1 X174.844 Y141.718 E9.83254
G1 X174.509 Y142.097 E9.85828
G1 X174.118 Y142.417 E9.884
G1 X173.682 Y142.672 E9.9097
G1 X173.211 Y142.856 E9.93543
G1 X172.716 Y142.962 E9.96119
G1 X172.38 Y142.99 E9.97835
G1 X171.97 Y143 E9.99922
G1 X48.366 Y143 E16.28918
G1 X47.668 Y142.991 E16.3247
G1 X47.164 Y142.944 E16.35046
G1 X46.674 Y142.819 E16.3762
G1 X46.21 Y142.618 E16.40193
G1 X45.784 Y142.347 E16.42762
G1 X45.405 Y142.012 E16.45336
G1 X45.084 Y141.621 E16.47911
G1 X44.829 Y141.185 E16.50481
G1 X44.645 Y140.714 E16.53054
G1 X44.538 Y140.22 E16.55626
G1 X44.51 Y139.877 E16.57378
G1 X44.5 Y139.458 E16.5951
G1 X44.5 Y115.662 E17.80603
G1 X44.51 Y114.956 E17.84197
G1 X44.545 Y114.111 E17.885
G1 X44.623 Y111.321 E18.02704
G1 X44.623 Y108.592 E18.16591
G1 X44.539 Y106.057 E18.29498
G1 X44.5 Y104.014 E18.39896
G1 X44.5 Y80.831 E19.5787
G1 X44.509 Y80.166 E19.61254
G1 X44.556 Y79.662 E19.6383
G1 X44.682 Y79.173 E19.664
G1 X44.883 Y78.709 E19.68973
G1 X45.154 Y78.282 E19.71547
G1 X45.489 Y77.904 E19.74117
G1 X45.88 Y77.583 E19.76691
G1 F1500 E13.26691
;MESH:cytroncase_lid_v2_mirrored.stl
G0 F9000 X48.51 Y79.535
G0 X48.51 Y81.01
G0 X48.48 Y104.273
G0 X51.907 Y106.049
G0 X53.46 Y109.639
G0 X52.369 Y113.393
G0 X49.149 Y115.586
G0 X48.48 Y115.726
G0 X48.482 Y139.018
G0 X171.7 Y139.2
;TYPE:WALL-INNER
G1 F1500 E19.76691
G1 F2700 X48.3 Y139.2 E26.04649
G1 X48.3 Y115.565 E27.24923
G1 X48.418 Y115.554 E27.25526
G1 X48.764 Y115.497 E27.27311
G1 X49.106 Y115.421 E27.29094
G1 X49.443 Y115.321 E27.30882
G1 X49.775 Y115.202 E27.32677
G1 X50.099 Y115.061 E27.34475
G1 X50.41 Y114.9 E27.36257
G1 X50.714 Y114.721 E27.38053
G1 X51.003 Y114.521 E27.39841
G1 X51.28 Y114.306 E27.41626
G1 X51.543 Y114.073 E27.43414
G1 X51.783 Y113.834 E27.45137
G1 X52.015 Y113.569 E27.4693
G1 X52.231 Y113.292 E27.48717
G1 X52.429 Y113 E27.50512
G1 X52.608 Y112.698 E27.52299
G1 X52.767 Y112.385 E27.54085
G1 X52.907 Y112.062 E27.55877
G1 X53.026 Y111.731 E27.57667
G1 X53.125 Y111.393 E27.59459
G1 X53.201 Y111.05 E27.61247
G1 X53.257 Y110.702 E27.6304
G1 X53.289 Y110.35 E27.64839
G1 X53.3 Y110 E27.66621
G1 X53.289 Y109.65 E27.68403
G1 X53.257 Y109.298 E27.70202
G1 X53.201 Y108.95 E27.71995
G1 X53.125 Y108.607 E27.73783
G1 X53.026 Y108.269 E27.75575
G1 X52.907 Y107.938 E27.77365
G1 X52.767 Y107.615 E27.79157
G1 X52.608 Y107.302 E27.80943
G1 X52.429 Y107 E27.8273
G1 X52.231 Y106.708 E27.84525
G1 X52.015 Y106.431 E27.86313
G1 X51.783 Y106.166 E27.88105
G1 X51.523 Y105.908 E27.89969
G1 X51.258 Y105.674 E27.91768
G1 X50.979 Y105.462 E27.93551
G1 X50.689 Y105.264 E27.95338
G1 X50.384 Y105.086 E27.97135
G1 X50.071 Y104.927 E27.98922
G1 X49.748 Y104.788 E28.00711
G1 X49.416 Y104.67 E28.02504
G1 X49.078 Y104.572 E28.04295
G1 X48.735 Y104.497 E28.06082
G1 X48.388 Y104.442 E28.07869
G1 X48.3 Y104.434 E28.08319
G1 X48.3 Y80.8 E29.28588
G1 X171.7 Y80.8 E35.56546
G1 X171.7 Y100.42 E36.56388
G1 X171.672 Y100.421 E36.56531
G1 X171.096 Y100.475 E36.59475
G1 X170.477 Y100.575 E36.62665
G1 X169.912 Y100.702 E36.65612
G1 X169.31 Y100.879 E36.68806
G1 X168.743 Y101.083 E36.71872
G1 X168.212 Y101.314 E36.74819
G1 X167.653 Y101.6 E36.78014
G1 X167.135 Y101.907 E36.81078
G1 X166.656 Y102.234 E36.8403
G1 X166.162 Y102.619 E36.87217
G1 X165.728 Y103.001 E36.90159
G1 X165.301 Y103.428 E36.93232
G1 X164.903 Y103.881 E36.963
G1 X164.533 Y104.357 E36.99368
G1 X164.194 Y104.857 E37.02443
G1 X163.887 Y105.375 E37.05507
G1 X163.614 Y105.913 E37.08577
G1 X163.374 Y106.465 E37.1164
G1 X163.169 Y107.033 E37.14713
G1 X163.001 Y107.612 E37.17781
G1 X162.869 Y108.201 E37.20852
G1 X162.775 Y108.797 E37.23923
G1 X162.719 Y109.397 E37.26989
G1 X162.7 Y110 E37.30059
G1 X162.719 Y110.603 E37.33129
G1 X162.775 Y111.203 E37.36196
G1 X162.869 Y111.799 E37.39266
G1 X163.001 Y112.388 E37.42338
G1 X163.169 Y112.967 E37.45406
G1 X163.374 Y113.535 E37.48479
G1 X163.614 Y114.087 E37.51542
G1 X163.887 Y114.625 E37.54612
G1 X164.194 Y115.143 E37.57676
G1 X164.533 Y115.643 E37.6075
G1 X164.903 Y116.119 E37.63818
G1 X165.301 Y116.572 E37.66887
G1 X165.747 Y117.016 E37.70089
G1 X166.201 Y117.413 E37.73158
G1 X166.658 Y117.767 E37.761
G1 X167.178 Y118.118 E37.79293
G1 X167.697 Y118.424 E37.82359
G1 X168.213 Y118.686 E37.85304
G1 X168.789 Y118.934 E37.88495
G1 X169.334 Y119.131 E37.91444
G1 X169.937 Y119.304 E37.94636
G1 X170.526 Y119.435 E37.97707
G1 X171.098 Y119.525 E38.00653
G1 X171.7 Y119.58 E38.0373
G1 X171.7 Y139.2 E39.03572
G0 F9000 X172.1 Y139.6
;TYPE:WALL-OUTER
G1 F2700 X47.9 Y139.6 E45.35601
G1 X47.9 Y115.194 E46.59798
G1 X48.04 Y115.189 E46.60511
G1 X48.366 Y115.157 E46.62178
G1 X48.688 Y115.104 E46.63839
G1 X49.006 Y115.033 E46.65497
G1 X49.319 Y114.941 E46.67157
G1 X49.627 Y114.83 E46.68823
G1 X49.927 Y114.699 E46.70489
G1 X50.217 Y114.55 E46.72148
G1 X50.498 Y114.384 E46.73809
G1 X50.767 Y114.198 E46.75473
G1 X51.025 Y113.998 E46.77134
G1 X51.269 Y113.782 E46.78792
G1 X51.491 Y113.56 E46.8039
G1 X51.707 Y113.314 E46.82056
G1 X51.907 Y113.057 E46.83713
G1 X52.091 Y112.786 E46.8538
G1 X52.257 Y112.505 E46.87041
G1 X52.405 Y112.214 E46.88702
G1 X52.535 Y111.915 E46.90361
G1 X52.645 Y111.607 E46.92026
G1 X52.737 Y111.293 E46.93691
G1 X52.808 Y110.975 E46.95349
G1 X52.86 Y110.652 E46.97014
G1 X52.89 Y110.326 E46.9868
G1 X52.9 Y110 E47.00339
G1 X52.89 Y109.674 E47.01999
G1 X52.86 Y109.348 E47.03665
G1 X52.808 Y109.025 E47.0533
G1 X52.737 Y108.707 E47.06988
G1 X52.645 Y108.393 E47.08653
G1 X52.535 Y108.085 E47.10317
G1 X52.405 Y107.786 E47.11977
G1 X52.257 Y107.495 E47.13638
G1 X52.091 Y107.214 E47.15299
G1 X51.907 Y106.943 E47.16966
G1 X51.707 Y106.686 E47.18623
G1 X51.491 Y106.44 E47.20289
G1 X51.25 Y106.2 E47.2202
G1 X51.004 Y105.984 E47.23685
G1 X50.745 Y105.786 E47.25345
G1 X50.475 Y105.602 E47.27007
G1 X50.193 Y105.437 E47.2867
G1 X49.902 Y105.29 E47.30329
G1 X49.602 Y105.161 E47.31991
G1 X49.293 Y105.051 E47.3366
G1 X48.979 Y104.96 E47.35323
G1 X48.661 Y104.89 E47.3698
G1 X48.339 Y104.839 E47.38639
G1 X48.013 Y104.81 E47.40305
G1 X47.9 Y104.806 E47.4088
G1 X47.9 Y80.4 E48.65078
G1 X172.1 Y80.4 E54.97107
G1 X172.1 Y100.806 E56.00949
G1 X171.698 Y100.82 E56.02996
G1 X171.147 Y100.872 E56.05812
G1 X170.553 Y100.968 E56.08874
G1 X170.012 Y101.089 E56.11695
G1 X169.434 Y101.259 E56.14761
G1 X168.891 Y101.455 E56.17699
G1 X168.383 Y101.676 E56.20518
G1 X167.846 Y101.95 E56.23586
G1 X167.35 Y102.245 E56.26522
G1 X166.892 Y102.557 E56.29342
G1 X166.417 Y102.927 E56.32406
G1 X166.002 Y103.293 E56.35222
G1 X165.593 Y103.702 E56.38166
G1 X165.211 Y104.136 E56.41108
G1 X164.857 Y104.592 E56.44046
G1 X164.532 Y105.071 E56.46991
G1 X164.238 Y105.568 E56.4993
G1 X163.976 Y106.083 E56.5287
G1 X163.746 Y106.613 E56.5581
G1 X163.55 Y107.157 E56.58753
G1 X163.389 Y107.712 E56.61693
G1 X163.262 Y108.276 E56.64635
G1 X163.172 Y108.847 E56.67577
G1 X163.118 Y109.422 E56.70516
G1 X163.1 Y110 E56.73459
G1 X163.118 Y110.578 E56.76401
G1 X163.172 Y111.153 E56.7934
G1 X163.262 Y111.724 E56.82282
G1 X163.389 Y112.288 E56.85224
G1 X163.55 Y112.843 E56.88165
G1 X163.746 Y113.387 E56.91107
G1 X163.976 Y113.917 E56.94047
G1 X164.238 Y114.432 E56.96988
G1 X164.532 Y114.929 E56.99926
G1 X164.857 Y115.408 E57.02872
G1 X165.211 Y115.864 E57.05809
G1 X165.593 Y116.298 E57.08752
G1 X166.02 Y116.723 E57.11817
G1 X166.455 Y117.104 E57.1476
G1 X166.893 Y117.443 E57.17578
G1 X167.392 Y117.78 E57.20643
G1 X167.889 Y118.073 E57.23579
G1 X168.383 Y118.324 E57.26398
G1 X168.936 Y118.562 E57.29462
G1 X169.457 Y118.75 E57.32281
G1 X170.036 Y118.916 E57.35346
G1 X170.601 Y119.042 E57.38291
G1 X171.147 Y119.128 E57.41104
G1 X171.747 Y119.183 E57.4417
G1 X172.1 Y119.194 E57.45968
G1 X172.1 Y139.6 E58.4981
G0 F9000 X171.9 Y139.6
G0 X171.66 Y139.16
G0 X171.31 Y138.81
;TYPE:SKIN
G1 F2700 X48.69 Y138.81 E64.73798
G1 X48.69 Y115.904 E65.90362
G1 X48.838 Y115.88 E65.91125
G1 X49.204 Y115.799 E65.93033
G1 X49.564 Y115.692 E65.94944
G1 X49.919 Y115.565 E65.96863
G1 X50.267 Y115.414 E65.98793
G1 X50.599 Y115.241 E66.00698
G1 X50.925 Y115.05 E66.02621
G1 X51.233 Y114.835 E66.04532
G1 X51.529 Y114.606 E66.06437
G1 X51.81 Y114.358 E66.08344
G1 X52.068 Y114.101 E66.10197
G1 X52.315 Y113.817 E66.12113
G1 X52.547 Y113.522 E66.14022
G1 X52.759 Y113.209 E66.15946
G1 X52.95 Y112.886 E66.17856
G1 X53.12 Y112.551 E66.19767
G1 X53.27 Y112.206 E66.21682
G1 X53.397 Y111.852 E66.23596
G1 X53.503 Y111.491 E66.2551
G1 X53.585 Y111.124 E66.27424
G1 X53.645 Y110.751 E66.29346
G1 X53.679 Y110.373 E66.31278
G1 X53.69 Y110 E66.33177
G1 X53.679 Y109.627 E66.35076
G1 X53.645 Y109.249 E66.37007
G1 X53.585 Y108.876 E66.3893
G1 X53.503 Y108.509 E66.40843
G1 X53.397 Y108.148 E66.42758
G1 X53.27 Y107.794 E66.44672
G1 X53.12 Y107.449 E66.46586
G1 X52.95 Y107.114 E66.48498
G1 X52.759 Y106.791 E66.50407
G1 X52.547 Y106.478 E66.52331
G1 X52.315 Y106.183 E66.54241
G1 X52.068 Y105.899 E66.56156
G1 X51.79 Y105.623 E66.5815
G1 X51.505 Y105.372 E66.60082
G1 X51.207 Y105.146 E66.61985
G1 X50.898 Y104.934 E66.63892
G1 X50.571 Y104.743 E66.6582
G1 X50.236 Y104.574 E66.67729
G1 X49.89 Y104.425 E66.69646
G1 X49.535 Y104.299 E66.71563
G1 X49.174 Y104.194 E66.73476
G1 X48.807 Y104.113 E66.75389
G1 X48.69 Y104.094 E66.75992
G1 X48.69 Y81.19 E67.92546
G1 X171.31 Y81.19 E74.16534
G1 X171.31 Y100.063 E75.12575
G1 X171.047 Y100.087 E75.13919
G1 X170.403 Y100.192 E75.1724
G1 X169.814 Y100.324 E75.20311
G1 X169.189 Y100.508 E75.23627
G1 X168.599 Y100.72 E75.26817
G1 X168.045 Y100.961 E75.29892
G1 X167.464 Y101.259 E75.33214
G1 X166.926 Y101.578 E75.36397
G1 X166.426 Y101.918 E75.39474
G1 X165.913 Y102.319 E75.42788
G1 X165.461 Y102.716 E75.45849
G1 X165.016 Y103.161 E75.49052
G1 X164.603 Y103.633 E75.52243
G1 X164.217 Y104.127 E75.55433
G1 X163.864 Y104.648 E75.58636
G1 X163.545 Y105.187 E75.61823
G1 X163.261 Y105.747 E75.65018
G1 X163.011 Y106.321 E75.68204
G1 X162.798 Y106.912 E75.71401
G1 X162.623 Y107.515 E75.74596
G1 X162.485 Y108.128 E75.77794
G1 X162.387 Y108.748 E75.80988
G1 X162.329 Y109.373 E75.84182
G1 X162.31 Y110 E75.87374
G1 X162.329 Y110.627 E75.90567
G1 X162.387 Y111.252 E75.93761
G1 X162.485 Y111.872 E75.96955
G1 X162.623 Y112.485 E76.00153
G1 X162.798 Y113.088 E76.03348
G1 X163.011 Y113.679 E76.06545
G1 X163.261 Y114.253 E76.09731
G1 X163.545 Y114.813 E76.12926
G1 X163.864 Y115.352 E76.16113
G1 X164.217 Y115.873 E76.19316
G1 X164.603 Y116.367 E76.22506
G1 X165.016 Y116.839 E76.25697
G1 X165.48 Y117.301 E76.29029
G1 X165.953 Y117.714 E76.32225
G1 X166.43 Y118.083 E76.35294
G1 X166.97 Y118.448 E76.38611
G1 X167.51 Y118.766 E76.418
G1 X168.047 Y119.039 E76.44865
G1 X168.645 Y119.297 E76.48179
G1 X169.213 Y119.502 E76.51252
G1 X169.841 Y119.682 E76.54577
G1 X170.454 Y119.819 E76.57773
G1 X171.05 Y119.913 E76.60844
G1 X171.31 Y119.936 E76.62172
G1 X171.31 Y138.81 E77.58218
G1 F1500 E71.08218
G0 F9000 X171.59 Y138.81
G0 X171.499 Y119.4
G0 X169.978 Y119.148
G0 X168.848 Y118.785
G0 X167.264 Y117.982
G0 X165.856 Y116.898
G0 X165.027 Y116.017
G0 X164.028 Y114.547
G0 X163.322 Y112.917
G0 X162.934 Y111.182
G0 X162.879 Y109.408
G0 X163.157 Y107.653
G0 X163.759 Y105.981
G0 X164.663 Y104.451
G0 X165.838 Y103.118
G0 X167.221 Y102.043
G0 X168.803 Y101.232
G0 X170.508 Y100.733
G0 X171.59 Y100.589
G0 X171.59 Y81.771
G0 X171.149 Y81.771
G1 F1500 E77.58218
G1 F2700 X170.728 Y81.349 E77.61251
G0 F9000 X170.162 Y81.349
G1 F2700 X171.149 Y82.336 E77.68354
G0 F9000 X171.149 Y82.902
G1 F2700 X169.596 Y81.349 E77.79531
G0 F9000 X169.031 Y81.349
G1 F2700 X171.149 Y83.468 E77.94777
G0 F9000 X171.149 Y84.033
G1 F2700 X168.465 Y81.349 E78.14093
G0 F9000 X167.899 Y81.349
G1 F2700 X171.149 Y84.599 E78.37482
G0 F9000 X171.149 Y85.165
G1 F2700 X167.333 Y81.349 E78.64944
G0 F9000 X166.768 Y81.349
G1 F2700 X171.149 Y85.731 E78.96476
G0 F9000 X171.149 Y86.296
G1 F2700 X166.202 Y81.349 E79.32078
G0 F9000 X165.636 Y81.349
G1 F2700 X171.149 Y86.862 E79.71753
G0 F9000 X171.149 Y87.428
G1 F2700 X165.071 Y81.349 E80.15498
G0 F9000 X164.505 Y81.349
G1 F2700 X171.149 Y87.993 E80.63313
G0 F9000 X171.149 Y88.559
G1 F2700 X163.939 Y81.349 E81.15201
G0 F9000 X163.374 Y81.349
G1 F2700 X171.149 Y89.125 E81.71158
G0 F9000 X171.149 Y89.69
G1 F2700 X162.808 Y81.349 E82.31185
G0 F9000 X162.242 Y81.349
G1 F2700 X171.149 Y90.256 E82.95286
G0 F9000 X171.149 Y90.822
G1 F2700 X161.677 Y81.349 E83.63456
G0 F9000 X161.111 Y81.349
G1 F2700 X171.149 Y91.387 E84.35696
G0 F9000 X171.149 Y91.953
G1 F2700 X160.545 Y81.349 E85.12009
G0 F9000 X159.98 Y81.349
G1 F2700 X171.149 Y92.519 E85.92392
G0 F9000 X171.149 Y93.084
G1 F2700 X159.414 Y81.349 E86.76845
G0 F9000 X158.848 Y81.349
G1 F2700 X171.149 Y93.65 E87.65371
G0 F9000 X171.149 Y94.216
G1 F2700 X158.283 Y81.349 E88.57967
G0 F9000 X157.717 Y81.349
G1 F2700 X171.149 Y94.782 E89.54636
G0 F9000 X171.149 Y95.347
G1 F2700 X157.151 Y81.349 E90.55375
G0 F9000 X156.585 Y81.349
G1 F2700 X171.149 Y95.913 E91.60187
G0 F9000 X171.149 Y96.479
G1 F2700 X156.02 Y81.349 E92.69068
G0 F9000 X155.454 Y81.349
G1 F2700 X171.149 Y97.044 E93.8202
G0 F9000 X171.149 Y97.61
G1 F2700 X154.888 Y81.349 E94.99045
G0 F9000 X154.323 Y81.349
G1 F2700 X171.149 Y98.176 E96.20139
G0 F9000 X171.149 Y98.741
G1 F2700 X153.757 Y81.349 E97.45303
G0 F9000 X153.191 Y81.349
G1 F2700 X171.149 Y99.307 E98.74541
G0 F9000 X171.149 Y99.873
G1 F2700 X152.626 Y81.349 E100.07848
G0 F9000 X152.06 Y81.349
G1 F2700 X170.692 Y99.982 E101.41939
G0 F9000 X170.214 Y100.069
G1 F2700 X151.494 Y81.349 E102.76661
G0 F9000 X150.929 Y81.349
G1 F2700 X169.753 Y100.173 E104.1213
G0 F9000 X169.316 Y100.302
G1 F2700 X150.363 Y81.349 E105.48529
G0 F9000 X149.797 Y81.349
G1 F2700 X168.892 Y100.444 E106.85949
G0 F9000 X168.479 Y100.597
G1 F2700 X149.232 Y81.349 E108.24466
G0 F9000 X148.666 Y81.349
G1 F2700 X168.084 Y100.768 E109.64214
G0 F9000 X167.705 Y100.954
G1 F2700 X148.1 Y81.349 E111.05305
G0 F9000 X147.535 Y81.349
G1 F2700 X167.333 Y101.148 E112.47788
G0 F9000 X166.978 Y101.358
G1 F2700 X146.969 Y81.349 E113.91785
G0 F9000 X146.403 Y81.349
G1 F2700 X166.634 Y101.58 E115.37381
G0 F9000 X166.3 Y101.812
G1 F2700 X145.837 Y81.349 E116.84646
G0 F9000 X145.272 Y81.349
G1 F2700 X165.982 Y102.06 E118.33692
G0 F9000 X165.672 Y102.315
G1 F2700 X144.706 Y81.349 E119.84577
G0 F9000 X144.14 Y81.349
G1 F2700 X165.371 Y102.579 E121.37366
G0 F9000 X165.087 Y102.862
G1 F2700 X143.575 Y81.349 E122.92184
G0 F9000 X143.009 Y81.349
G1 F2700 X164.811 Y103.151 E124.49085
G0 F9000 X164.546 Y103.452
G1 F2700 X142.443 Y81.349 E126.08152
G0 F9000 X141.878 Y81.349
G1 F2700 X164.295 Y103.767 E127.69483
G0 F9000 X164.049 Y104.086
G1 F2700 X141.312 Y81.349 E129.33114
G0 F9000 X140.746 Y81.349
G1 F2700 X163.821 Y104.424 E130.99176
G0 F9000 X163.604 Y104.772
