;FLAVOR:Marlin
;TIME:3300
;Filament used: 3.6423m
;Layer height: 0.2
;MINX:63
;MINY:115.649
;MINZ:0.3
;MAXX:157
;MAXY:164.649
;MAXZ:14.9
;Generated with Cura_SteamEngine 4.8.0
M140 S60
M105
M190 S60
M104 S197
M105
M109 S197
M82 ;absolute extrusion mode
G28 ;Home
G1 Z15.0 F2000 ;Move the platform
G92 E0
G92 E0
G1 F1500 E-6.5
;LAYER_COUNT:74
;LAYER:0
M106 S63.8
M204 S1000
G0 F9000 X64.817 Y115.977 Z0.3
;TYPE:SKIRT
G1 F1500 E0
G1 F2700 X65.288 Y115.793 E0.02573
G1 X65.782 Y115.687 E0.05144
G1 X66.119 Y115.659 E0.06865
G1 X66.53 Y115.649 E0.08957
G1 X153.139 Y115.649 E4.49693
G1 X153.837 Y115.659 E4.53246
G1 X154.34 Y115.706 E4.55816
G1 X154.83 Y115.832 E4.58391
G1 X155.294 Y116.034 E4.60966
G1 X155.72 Y116.306 E4.63538
G1 X156.098 Y116.641 E4.66109
G1 X156.418 Y117.032 E4.6868
G1 X156.673 Y117.469 E4.71254
G1 X156.856 Y117.94 E4.73826
G1 X156.963 Y118.434 E4.76398
G1 X156.99 Y118.769 E4.78108
G1 X157 Y119.179 E4.80195
G1 X157 Y134.488 E5.581
G1 X156.99 Y135.187 E5.61657
G1 X156.955 Y136.037 E5.65986
G1 X156.877 Y138.828 E5.80195
G1 X156.877 Y141.557 E5.94082
G1 X156.961 Y144.092 E6.06989
G1 X157 Y146.135 E6.17388
G1 X157 Y160.753 E6.91776
G1 X156.991 Y161.48 E6.95475
G1 X156.945 Y161.983 E6.98046
G1 X156.82 Y162.473 E7.00619
G1 X156.619 Y162.937 E7.03192
G1 X156.348 Y163.364 E7.05766
G1 X156.013 Y163.743 E7.0834
G1 X155.623 Y164.064 E7.1091
G1 X155.187 Y164.32 E7.13483
G1 X154.716 Y164.503 E7.16055
G1 X154.222 Y164.611 E7.18628
G1 X153.881 Y164.639 E7.20369
G1 X153.47 Y164.649 E7.22461
G1 X135.861 Y164.649 E8.1207
G1 X135.161 Y164.639 E8.15632
G1 X134.447 Y164.547 E8.19296
G1 X133.313 Y164.27 E8.25236
G1 X130.607 Y163.646 E8.39368
G1 X127.873 Y163.094 E8.53561
G1 X125.245 Y162.645 E8.67129
G1 X122.485 Y162.251 E8.81316
G1 X119.793 Y161.945 E8.95103
G1 X117.077 Y161.712 E9.08975
G1 X114.335 Y161.557 E9.22951
G1 X111.579 Y161.478 E9.36982
G1 X108.86 Y161.477 E9.50818
G1 X106.11 Y161.553 E9.64818
G1 X103.394 Y161.706 E9.78661
G1 X100.651 Y161.938 E9.92669
G1 X97.916 Y162.248 E10.06676
G1 X95.227 Y162.63 E10.20497
G1 X92.522 Y163.093 E10.34463
G1 X89.855 Y163.625 E10.48302
G1 X87.181 Y164.241 E10.62266
G1 X85.998 Y164.539 E10.68474
G1 X85.658 Y164.605 E10.70236
G1 X85.279 Y164.639 E10.72173
G1 X84.87 Y164.649 E10.74255
G1 X66.866 Y164.649 E11.65873
G1 X66.168 Y164.64 E11.69426
G1 X65.664 Y164.593 E11.72002
G1 X65.174 Y164.468 E11.74575
G1 X64.71 Y164.267 E11.77148
G1 X64.284 Y163.996 E11.79717
G1 X63.905 Y163.661 E11.82292
G1 X63.584 Y163.27 E11.84866
G1 X63.329 Y162.834 E11.87436
G1 X63.145 Y162.363 E11.90009
G1 X63.038 Y161.869 E11.92582
G1 X63.01 Y161.526 E11.94333
G1 X63 Y161.107 E11.96466
G1 X63 Y145.811 E12.74304
G1 X63.01 Y145.105 E12.77897
G1 X63.045 Y144.261 E12.82196
G1 X63.123 Y141.47 E12.96404
G1 X63.123 Y138.741 E13.10291
G1 X63.039 Y136.206 E13.23199
G1 X63 Y134.163 E13.33597
G1 X63 Y119.48 E14.08316
G1 X63.009 Y118.815 E14.117
G1 X63.056 Y118.311 E14.14276
G1 X63.182 Y117.822 E14.16846
G1 X63.383 Y117.358 E14.19419
G1 X63.654 Y116.931 E14.21993
G1 X63.989 Y116.553 E14.24563
G1 X64.38 Y116.232 E14.27137
G1 X64.817 Y115.977 E14.29712
G1 F1500 E7.79712
;MESH:converter_lid_v1.stl
G0 F9000 X67.01 Y118.184
G0 X67.01 Y119.659
G0 X66.98 Y134.424
G0 X70.406 Y136.199
G0 X71.96 Y139.787
G0 X70.869 Y143.542
G0 X67.65 Y145.736
G0 X66.98 Y145.875
G0 X66.982 Y160.667
G0 X84.6 Y160.849
;TYPE:WALL-INNER
G1 F1500 E14.29712
G1 F2700 X66.8 Y160.849 E15.20293
G1 X66.8 Y145.714 E15.97312
G1 X66.916 Y145.703 E15.97905
G1 X67.263 Y145.647 E15.99693
G1 X67.606 Y145.571 E16.01481
G1 X67.944 Y145.471 E16.03275
G1 X68.276 Y145.351 E16.05071
G1 X68.599 Y145.21 E16.06865
G1 X68.91 Y145.049 E16.08647
G1 X69.214 Y144.87 E16.10442
G1 X69.503 Y144.67 E16.1223
G1 X69.78 Y144.455 E16.14015
G1 X70.043 Y144.222 E16.15803
G1 X70.283 Y143.983 E16.17526
G1 X70.515 Y143.718 E16.19319
G1 X70.731 Y143.441 E16.21106
G1 X70.929 Y143.149 E16.22902
G1 X71.108 Y142.847 E16.24688
G1 X71.267 Y142.534 E16.26475
G1 X71.407 Y142.211 E16.28266
G1 X71.526 Y141.88 E16.30056
G1 X71.625 Y141.543 E16.31843
G1 X71.701 Y141.199 E16.33636
G1 X71.757 Y140.851 E16.3543
G1 X71.789 Y140.499 E16.37228
G1 X71.8 Y140.149 E16.3901
G1 X71.789 Y139.798 E16.40797
G1 X71.757 Y139.448 E16.42586
G1 X71.701 Y139.099 E16.44385
G1 X71.625 Y138.756 E16.46172
G1 X71.526 Y138.418 E16.47965
G1 X71.407 Y138.088 E16.4975
G1 X71.267 Y137.765 E16.51541
G1 X71.108 Y137.451 E16.53332
G1 X70.929 Y137.149 E16.55119
G1 X70.731 Y136.857 E16.56914
G1 X70.515 Y136.579 E16.58706
G1 X70.282 Y136.316 E16.60494
G1 X70.023 Y136.057 E16.62358
G1 X69.758 Y135.825 E16.6415
G1 X69.479 Y135.611 E16.65939
G1 X69.189 Y135.414 E16.67723
G1 X68.885 Y135.235 E16.69519
G1 X68.571 Y135.076 E16.7131
G1 X68.248 Y134.937 E16.73099
G1 X67.916 Y134.819 E16.74892
G1 X67.578 Y134.721 E16.76683
G1 X67.235 Y134.646 E16.7847
G1 X66.888 Y134.592 E16.80257
G1 X66.8 Y134.584 E16.80706
G1 X66.8 Y119.449 E17.57725
G1 X153.2 Y119.449 E21.97398
G1 X153.2 Y134.584 E22.74417
G1 X153.082 Y134.596 E22.7502
G1 X152.736 Y134.652 E22.76804
G1 X152.394 Y134.728 E22.78587
G1 X152.057 Y134.828 E22.80376
G1 X151.725 Y134.947 E22.8217
G1 X151.401 Y135.089 E22.83971
G1 X151.089 Y135.25 E22.85757
G1 X150.787 Y135.429 E22.87544
G1 X150.497 Y135.628 E22.89333
G1 X150.22 Y135.844 E22.91121
G1 X149.966 Y136.066 E22.92838
G1 X149.717 Y136.316 E22.94633
G1 X149.485 Y136.579 E22.96418
G1 X149.269 Y136.857 E22.98209
G1 X149.071 Y137.149 E23.00005
G1 X148.892 Y137.451 E23.01791
G1 X148.733 Y137.765 E23.03582
G1 X148.593 Y138.088 E23.05374
G1 X148.474 Y138.418 E23.07159
G1 X148.375 Y138.756 E23.08951
G1 X148.299 Y139.099 E23.10739
G1 X148.243 Y139.448 E23.12538
G1 X148.211 Y139.798 E23.14326
G1 X148.2 Y140.149 E23.16113
G1 X148.211 Y140.499 E23.17895
G1 X148.243 Y140.851 E23.19694
G1 X148.299 Y141.199 E23.21488
G1 X148.375 Y141.543 E23.2328
G1 X148.474 Y141.88 E23.25068
G1 X148.593 Y142.211 E23.26858
G1 X148.733 Y142.534 E23.28649
G1 X148.892 Y142.847 E23.30436
G1 X149.071 Y143.149 E23.32222
G1 X149.269 Y143.441 E23.34017
G1 X149.485 Y143.718 E23.35805
G1 X149.717 Y143.983 E23.37597
G1 X149.977 Y144.241 E23.39461
G1 X150.242 Y144.475 E23.4126
G1 X150.521 Y144.687 E23.43043
G1 X150.811 Y144.885 E23.4483
G1 X151.116 Y145.065 E23.46632
G1 X151.429 Y145.222 E23.48414
G1 X151.75 Y145.36 E23.50192
G1 X152.07 Y145.476 E23.51925
G1 X152.422 Y145.577 E23.53788
G1 X152.765 Y145.653 E23.55576
G1 X153.114 Y145.707 E23.57373
G1 X153.2 Y145.715 E23.57813
G1 X153.2 Y160.849 E24.34826
G1 X135.8 Y160.849 E25.23372
G1 X135.8 Y139.549 E26.31763
G1 X84.6 Y139.549 E28.9231
G1 X84.6 Y160.849 E30.00701
G0 F9000 X85 Y161.249
;TYPE:WALL-OUTER
G1 F2700 X66.4 Y161.249 E30.95353
G1 X66.4 Y145.343 E31.76295
G1 X66.54 Y145.338 E31.77008
G1 X66.865 Y145.306 E31.7867
G1 X67.188 Y145.254 E31.80335
G1 X67.506 Y145.183 E31.81993
G1 X67.819 Y145.091 E31.83653
G1 X68.127 Y144.979 E31.85321
G1 X68.427 Y144.848 E31.86987
G1 X68.717 Y144.699 E31.88646
G1 X68.998 Y144.533 E31.90307
G1 X69.267 Y144.347 E31.91971
G1 X69.525 Y144.147 E31.93632
G1 X69.769 Y143.931 E31.9529
G1 X69.991 Y143.709 E31.96888
G1 X70.207 Y143.463 E31.98554
G1 X70.407 Y143.206 E32.00211
G1 X70.591 Y142.935 E32.01878
G1 X70.757 Y142.654 E32.03539
G1 X70.905 Y142.363 E32.052
G1 X71.035 Y142.064 E32.06859
G1 X71.145 Y141.756 E32.08524
G1 X71.237 Y141.443 E32.10184
G1 X71.308 Y141.124 E32.11847
G1 X71.36 Y140.801 E32.13512
G1 X71.39 Y140.475 E32.15178
G1 X71.4 Y140.149 E32.16837
G1 X71.39 Y139.823 E32.18497
G1 X71.36 Y139.498 E32.20158
G1 X71.308 Y139.174 E32.21828
G1 X71.237 Y138.856 E32.23486
G1 X71.145 Y138.542 E32.25151
G1 X71.035 Y138.235 E32.26811
G1 X70.905 Y137.935 E32.28474
G1 X70.757 Y137.644 E32.30136
G1 X70.591 Y137.363 E32.31797
G1 X70.407 Y137.092 E32.33464
G1 X70.207 Y136.834 E32.35125
G1 X69.991 Y136.59 E32.36783
G1 X69.75 Y136.349 E32.38517
G1 X69.504 Y136.134 E32.4018
G1 X69.245 Y135.935 E32.41842
G1 X68.975 Y135.752 E32.43502
G1 X68.693 Y135.586 E32.45167
G1 X68.402 Y135.439 E32.46826
G1 X68.102 Y135.31 E32.48488
G1 X67.793 Y135.2 E32.50157
G1 X67.479 Y135.109 E32.51821
G1 X67.161 Y135.039 E32.53478
G1 X66.839 Y134.989 E32.55136
G1 X66.514 Y134.959 E32.56797
G1 X66.4 Y134.955 E32.57377
G1 X66.4 Y119.049 E33.3832
G1 X153.6 Y119.049 E37.82063
G1 X153.6 Y134.955 E38.63006
G1 X153.46 Y134.96 E38.63719
G1 X153.134 Y134.993 E38.65386
G1 X152.812 Y135.045 E38.67046
G1 X152.494 Y135.116 E38.68704
G1 X152.181 Y135.208 E38.70364
G1 X151.873 Y135.319 E38.7203
G1 X151.573 Y135.45 E38.73696
G1 X151.283 Y135.6 E38.75357
G1 X151.002 Y135.766 E38.77018
G1 X150.733 Y135.951 E38.7868
G1 X150.475 Y136.152 E38.80344
G1 X150.24 Y136.358 E38.81934
G1 X150.009 Y136.59 E38.836
G1 X149.793 Y136.834 E38.85259
G1 X149.593 Y137.092 E38.8692
G1 X149.409 Y137.363 E38.88587
G1 X149.243 Y137.644 E38.90247
G1 X149.095 Y137.935 E38.91909
G1 X148.965 Y138.235 E38.93573
G1 X148.855 Y138.542 E38.95232
G1 X148.763 Y138.856 E38.96897
G1 X148.692 Y139.174 E38.98555
G1 X148.64 Y139.498 E39.00225
G1 X148.61 Y139.823 E39.01886
G1 X148.6 Y140.149 E39.03546
G1 X148.61 Y140.475 E39.05205
G1 X148.64 Y140.801 E39.06871
G1 X148.692 Y141.124 E39.08536
G1 X148.763 Y141.443 E39.10199
G1 X148.855 Y141.756 E39.1186
G1 X148.965 Y142.064 E39.13524
G1 X149.095 Y142.363 E39.15183
G1 X149.243 Y142.654 E39.16844
G1 X149.409 Y142.935 E39.18505
G1 X149.593 Y143.206 E39.20172
G1 X149.793 Y143.463 E39.21829
G1 X150.009 Y143.709 E39.23495
G1 X150.25 Y143.949 E39.25226
G1 X150.496 Y144.165 E39.26892
G1 X150.755 Y144.363 E39.28551
G1 X151.025 Y144.547 E39.30214
G1 X151.307 Y144.713 E39.31879
G1 X151.598 Y144.859 E39.33536
G1 X151.897 Y144.988 E39.35193
G1 X152.193 Y145.095 E39.36794
G1 X152.521 Y145.189 E39.38531
G1 X152.839 Y145.26 E39.40189
G1 X153.162 Y145.31 E39.41852
G1 X153.487 Y145.339 E39.43512
G1 X153.6 Y145.343 E39.44088
G1 X153.6 Y161.249 E40.2503
G1 X135.4 Y161.249 E41.17646
G1 X135.4 Y139.949 E42.26038
G1 X85 Y139.949 E44.82514
G1 X85 Y161.249 E45.90905
G0 F9000 X84.8 Y161.249
G0 X84.56 Y160.809
G0 X84.21 Y160.459
;TYPE:SKIN
G1 F2700 X67.19 Y160.459 E46.77516
G1 X67.19 Y146.054 E47.50821
G1 X67.337 Y146.031 E47.51578
G1 X67.704 Y145.949 E47.53491
G1 X68.065 Y145.842 E47.55407
G1 X68.42 Y145.714 E47.57328
G1 X68.767 Y145.563 E47.59253
G1 X69.099 Y145.39 E47.61159
G1 X69.425 Y145.199 E47.63081
G1 X69.733 Y144.984 E47.64993
G1 X70.029 Y144.755 E47.66897
G1 X70.31 Y144.507 E47.68804
G1 X70.568 Y144.25 E47.70658
G1 X70.815 Y143.966 E47.72573
G1 X71.047 Y143.671 E47.74483
G1 X71.259 Y143.358 E47.76406
G1 X71.45 Y143.035 E47.78316
G1 X71.62 Y142.7 E47.80228
G1 X71.77 Y142.355 E47.82142
G1 X71.897 Y142.001 E47.84056
G1 X72.003 Y141.64 E47.85971
G1 X72.085 Y141.272 E47.87889
G1 X72.145 Y140.9 E47.89807
G1 X72.179 Y140.522 E47.91738
G1 X72.19 Y140.149 E47.93637
G1 X72.179 Y139.775 E47.95541
G1 X72.145 Y139.399 E47.97462
G1 X72.085 Y139.025 E47.9939
G1 X72.003 Y138.658 E48.01303
G1 X71.897 Y138.297 E48.03218
G1 X71.77 Y137.944 E48.05127
G1 X71.62 Y137.599 E48.07041
G1 X71.45 Y137.264 E48.08953
G1 X71.259 Y136.94 E48.10867
G1 X71.047 Y136.627 E48.12791
G1 X70.815 Y136.33 E48.14709
G1 X70.566 Y136.049 E48.16619
G1 X70.29 Y135.772 E48.18609
G1 X70.005 Y135.523 E48.20535
G1 X69.707 Y135.295 E48.22444
G1 X69.398 Y135.084 E48.24348
G1 X69.072 Y134.892 E48.26274
G1 X68.736 Y134.723 E48.28188
G1 X68.39 Y134.574 E48.30105
G1 X68.035 Y134.448 E48.32022
G1 X67.674 Y134.343 E48.33935
G1 X67.307 Y134.262 E48.35847
G1 X67.19 Y134.244 E48.3645
G1 X67.19 Y119.839 E49.09754
G1 X152.81 Y119.839 E53.45457
G1 X152.81 Y134.244 E54.18761
G1 X152.662 Y134.268 E54.19524
G1 X152.296 Y134.35 E54.21433
G1 X151.936 Y134.457 E54.23344
G1 X151.581 Y134.584 E54.25263
G1 X151.233 Y134.736 E54.27195
G1 X150.9 Y134.909 E54.29105
G1 X150.577 Y135.1 E54.31014
G1 X150.267 Y135.314 E54.32931
G1 X149.972 Y135.543 E54.34832
G1 X149.699 Y135.781 E54.36675
G1 X149.432 Y136.049 E54.386
G1 X149.185 Y136.33 E54.40504
G1 X148.953 Y136.627 E54.42422
G1 X148.741 Y136.94 E54.44345
G1 X148.55 Y137.264 E54.46259
G1 X148.38 Y137.599 E54.48171
G1 X148.23 Y137.944 E54.50085
G1 X148.103 Y138.297 E54.51994
G1 X147.997 Y138.658 E54.53909
G1 X147.915 Y139.025 E54.55823
G1 X147.855 Y139.399 E54.5775
G1 X147.821 Y139.775 E54.59671
G1 X147.81 Y140.149 E54.61575
G1 X147.821 Y140.522 E54.63474
G1 X147.855 Y140.9 E54.65406
G1 X147.915 Y141.272 E54.67323
G1 X147.997 Y141.64 E54.69242
G1 X148.103 Y142.001 E54.71156
G1 X148.23 Y142.355 E54.7307
G1 X148.38 Y142.7 E54.74985
G1 X148.55 Y143.035 E54.76896
G1 X148.741 Y143.358 E54.78806
G1 X148.953 Y143.671 E54.8073
G1 X149.185 Y143.966 E54.82639
G1 X149.432 Y144.25 E54.84555
G1 X149.71 Y144.526 E54.86548
G1 X149.995 Y144.777 E54.88481
G1 X150.293 Y145.003 E54.90384
G1 X150.602 Y145.214 E54.92288
G1 X150.929 Y145.408 E54.94223
G1 X151.265 Y145.575 E54.96132
G1 X151.606 Y145.723 E54.98024
G1 X151.949 Y145.847 E54.9988
G1 X152.326 Y145.955 E55.01876
G1 X152.693 Y146.037 E55.03789
G1 X152.81 Y146.055 E55.04392
G1 X152.81 Y160.459 E55.77691
G1 X136.19 Y160.459 E56.62267
G1 X136.19 Y139.159 E57.70658
G1 X84.21 Y139.159 E60.35174
G1 X84.21 Y160.459 E61.43566
G0 F9000 X84.49 Y160.459
G0 X67.525 Y160.739
G0 X67.525 Y160.298
G1 F2700 X67.349 Y160.122 E61.44832
G0 F9000 X67.349 Y159.556
G1 F2700 X68.091 Y160.298 E61.50172
G0 F9000 X68.657 Y160.298
G1 F2700 X67.349 Y158.99 E61.59585
G0 F9000 X67.349 Y158.425
G1 F2700 X69.222 Y160.298 E61.73065
G0 F9000 X69.788 Y160.298
G1 F2700 X67.349 Y157.859 E61.90617
G0 F9000 X67.349 Y157.293
G1 F2700 X70.354 Y160.298 E62.12243
G0 F9000 X70.919 Y160.298
G1 F2700 X67.349 Y156.728 E62.37935
G0 F9000 X67.349 Y156.162
G1 F2700 X71.485 Y160.298 E62.67701
G0 F9000 X72.051 Y160.298
G1 F2700 X67.349 Y155.596 E63.01539
G0 F9000 X67.349 Y155.031
G1 F2700 X72.617 Y160.298 E63.39448
G0 F9000 X73.182 Y160.298
G1 F2700 X67.349 Y154.465 E63.81426
G0 F9000 X67.349 Y153.899
G1 F2700 X73.748 Y160.298 E64.27477
G0 F9000 X74.314 Y160.298
G1 F2700 X67.349 Y153.333 E64.77602
G0 F9000 X67.349 Y152.768
G1 F2700 X74.879 Y160.298 E65.31792
G0 F9000 X75.445 Y160.298
G1 F2700 X67.349 Y152.202 E65.90057
G0 F9000 X67.349 Y151.636
G1 F2700 X76.011 Y160.298 E66.52394
G0 F9000 X76.576 Y160.298
G1 F2700 X67.349 Y151.071 E67.18797
G0 F9000 X67.349 Y150.505
G1 F2700 X77.142 Y160.298 E67.89274
G0 F9000 X77.708 Y160.298
G1 F2700 X67.349 Y149.939 E68.63824
G0 F9000 X67.349 Y149.374
G1 F2700 X78.273 Y160.298 E69.42441
G0 F9000 X78.839 Y160.298
G1 F2700 X67.349 Y148.808 E70.2513
G0 F9000 X67.349 Y148.242
G1 F2700 X79.405 Y160.298 E71.11893
G0 F9000 X79.97 Y160.298
G1 F2700 X67.349 Y147.677 E72.02722
G0 F9000 X67.349 Y147.111
G1 F2700 X80.536 Y160.298 E72.97624
G0 F9000 X81.102 Y160.298
G1 F2700 X67.349 Y146.545 E73.966
G0 F9000 X67.523 Y146.153
G1 F2700 X81.668 Y160.298 E74.98396
G0 F9000 X82.233 Y160.298
G1 F2700 X67.972 Y146.036 E76.01031
G0 F9000 X68.393 Y145.892
G1 F2700 X82.799 Y160.298 E77.04706
G0 F9000 X83.365 Y160.298
G1 F2700 X68.793 Y145.726 E78.09576
G0 F9000 X69.167 Y145.534
G1 F2700 X83.93 Y160.298 E79.15824
G0 F9000 X84.05 Y159.852
G1 F2700 X69.524 Y145.325 E80.20366
G0 F9000 X69.855 Y145.091
G1 F2700 X84.05 Y159.286 E81.22522
G0 F9000 X84.05 Y158.72
G1 F2700 X70.172 Y144.843 E82.22394
G0 F9000 X70.469 Y144.574
G1 F2700 X84.05 Y158.155 E83.20131
G0 F9000 X84.05 Y157.589
G1 F2700 X70.747 Y144.286 E84.15868
G0 F9000 X71.006 Y143.979
G1 F2700 X84.05 Y157.023 E85.09742
G0 F9000 X84.05 Y156.457
G1 F2700 X71.248 Y143.656 E86.0187
G0 F9000 X71.47 Y143.312
G1 F2700 X84.05 Y155.892 E86.92403
G0 F9000 X84.05 Y155.326
G1 F2700 X71.672 Y142.948 E87.81484
G0 F9000 X71.852 Y142.563
G1 F2700 X84.05 Y154.76 E88.69265
G0 F9000 X84.05 Y154.195
G1 F2700 X72.01 Y142.155 E89.55912
G0 F9000 X72.144 Y141.723
G1 F2700 X84.05 Y153.629 E90.41596
G0 F9000 X84.05 Y153.063
G1 F2700 X72.248 Y141.262 E91.26527
G0 F9000 X72.317 Y140.765
G1 F2700 X84.05 Y152.498 E92.10965
G0 F9000 X84.05 Y151.932
G1 F2700 X72.346 Y140.229 E92.95191
G0 F9000 X72.327 Y139.644
G1 F2700 X84.05 Y151.366 E93.79554
G0 F9000 X84.05 Y150.801
G1 F2700 X72.242 Y138.993 E94.64532
G0 F9000 X72.04 Y138.225
