;FLAVOR:Marlin
;TIME:9851
;Filament used: 8.80455m
;Layer height: 0.2
;MINX:69.4
;MINY:84.4
;MINZ:0.3
;MAXX:150.6
;MAXY:135.6
;MAXZ:23.5
;Generated with Cura_SteamEngine 4.8.0
M140 S60
M105
M190 S60
M104 S197
M105
M109 S197
M82 ;absolute extrusion mode
G28 ;Home
G1 Z15.0 F2000 ;Move the platform
G92 E0
G92 E0
G1 F1500 E-6.5
;LAYER_COUNT:117
;LAYER:0
M106 S63.8
M204 S1000
G0 F9000 X70.794 Y85.171 Z0.3
;TYPE:SKIRT
G1 F1500 E0
G1 F2700 X71.241 Y84.873 E0.02734
G1 X71.726 Y84.645 E0.05461
G1 X72.24 Y84.492 E0.0819
G1 X72.908 Y84.41 E0.11615
G1 X73.33 Y84.4 E0.13763
G1 X146.345 Y84.4 E3.85322
G1 X147.043 Y84.41 E3.88874
G1 X147.577 Y84.458 E3.91603
G1 X148.098 Y84.584 E3.9433
G1 X148.595 Y84.787 E3.97062
G1 X149.056 Y85.061 E3.99791
G1 X149.471 Y85.4 E4.02518
G1 X149.831 Y85.798 E4.05249
G1 X150.128 Y86.244 E4.07976
G1 X150.356 Y86.73 E4.10708
G1 X150.508 Y87.244 E4.13435
G1 X150.59 Y87.909 E4.16845
G1 X150.6 Y88.33 E4.18988
G1 X150.6 Y103.824 E4.97834
G1 X150.59 Y104.546 E5.01508
G1 X150.542 Y105.08 E5.04237
G1 X150.416 Y105.601 E5.06964
G1 X150.182 Y106.161 E5.10053
G1 X148.881 Y108.655 E5.24367
G1 X147.69 Y111.102 E5.38216
G1 X146.576 Y113.566 E5.51977
G1 X145.507 Y116.121 E5.66071
G1 X144.534 Y118.65 E5.7986
G1 X143.627 Y121.214 E5.937
G1 X142.797 Y123.796 E6.07502
G1 X142.035 Y126.416 E6.21387
G1 X141.339 Y129.088 E6.35438
G1 X140.713 Y131.808 E6.49641
G1 X140.511 Y132.748 E6.54534
G1 X140.36 Y133.262 E6.5726
G1 X140.133 Y133.749 E6.59994
G1 X139.837 Y134.196 E6.62722
G1 X139.478 Y134.594 E6.6545
G1 X139.064 Y134.934 E6.68176
G1 X138.603 Y135.209 E6.70908
G1 X138.107 Y135.413 E6.73637
G1 X137.586 Y135.541 E6.76367
G1 X137.104 Y135.588 E6.78832
G1 X136.67 Y135.6 E6.81041
G1 X83.65 Y135.6 E9.50849
G1 X82.951 Y135.589 E9.54407
G1 X82.417 Y135.54 E9.57136
G1 X81.896 Y135.413 E9.59864
G1 X81.4 Y135.21 E9.62592
G1 X80.939 Y134.935 E9.65323
G1 X80.525 Y134.595 E9.68049
G1 X80.165 Y134.197 E9.7078
G1 X79.868 Y133.751 E9.73507
G1 X79.642 Y133.265 E9.76235
G1 X79.499 Y132.791 E9.78754
G1 X79.425 Y132.47 E9.80431
G1 X78.972 Y130.376 E9.91333
G1 X78.318 Y127.717 E10.05267
G1 X77.597 Y125.105 E10.19056
G1 X76.788 Y122.477 E10.33049
G1 X75.925 Y119.926 E10.46753
G1 X74.978 Y117.367 E10.60639
G1 X73.954 Y114.822 E10.74599
G1 X72.863 Y112.319 E10.88493
G1 X71.712 Y109.87 E11.02264
G1 X70.472 Y107.413 E11.16269
G1 X69.82 Y106.167 E11.23425
G1 X69.608 Y105.675 E11.26151
G1 X69.471 Y105.156 E11.28883
G1 X69.412 Y104.608 E11.31688
G1 X69.4 Y104.17 E11.33917
G1 X69.4 Y88.625 E12.13023
G1 X69.409 Y87.96 E12.16407
G1 X69.457 Y87.426 E12.19136
G1 X69.583 Y86.905 E12.21863
G1 X69.785 Y86.408 E12.24593
G1 X70.058 Y85.947 E12.2732
G1 X70.397 Y85.531 E12.30051
G1 X70.794 Y85.171 E12.32778
G0 F9000 X71.18 Y85.383
G1 F2700 X71.617 Y85.128 E12.35352
G1 X72.088 Y84.944 E12.37926
G1 X72.582 Y84.838 E12.40497
G1 X72.919 Y84.81 E12.42218
G1 X73.33 Y84.8 E12.4431
G1 X146.339 Y84.8 E16.15838
G1 X147.037 Y84.81 E16.1939
G1 X147.54 Y84.857 E16.21961
G1 X148.03 Y84.983 E16.24536
G1 X148.494 Y85.185 E16.27111
G1 X148.92 Y85.457 E16.29683
G1 X149.298 Y85.792 E16.32253
G1 X149.618 Y86.183 E16.34824
G1 X149.873 Y86.62 E16.37399
G1 X150.056 Y87.091 E16.39971
G1 X150.163 Y87.585 E16.42543
G1 X150.19 Y87.92 E16.44253
G1 X150.2 Y88.33 E16.4634
G1 X150.2 Y103.818 E17.25155
G1 X150.19 Y104.54 E17.2883
G1 X150.143 Y105.044 E17.31406
G1 X150.017 Y105.533 E17.33975
G1 X149.827 Y105.976 E17.36428
G1 X148.524 Y108.474 E17.50766
G1 X147.337 Y110.912 E17.64564
G1 X146.201 Y113.425 E17.78599
G1 X145.141 Y115.959 E17.92576
G1 X144.159 Y118.51 E18.06486
G1 X143.245 Y121.095 E18.20439
G1 X142.418 Y123.668 E18.34192
G1 X141.647 Y126.318 E18.48237
G1 X140.956 Y128.969 E18.62178
G1 X140.324 Y131.718 E18.76532
G1 X140.12 Y132.664 E18.81457
G1 X139.975 Y133.148 E18.84028
G1 X139.756 Y133.603 E18.86597
G1 X139.467 Y134.019 E18.89175
G1 X139.117 Y134.383 E18.91745
G1 X138.713 Y134.688 E18.94321
G1 X138.267 Y134.925 E18.96891
G1 X137.789 Y135.089 E18.99462
G1 X137.091 Y135.188 E19.0305
G1 X136.67 Y135.2 E19.05193
G1 X83.657 Y135.2 E21.74966
G1 X82.958 Y135.189 E21.78523
G1 X82.454 Y135.141 E21.811
G1 X81.965 Y135.014 E21.83671
G1 X81.501 Y134.812 E21.86246
G1 X81.076 Y134.54 E21.88814
G1 X80.698 Y134.203 E21.91391
G1 X80.378 Y133.812 E21.93962
G1 X80.124 Y133.375 E21.96534
G1 X79.888 Y132.702 E22.00163
G1 X79.816 Y132.386 E22.01813
G1 X79.358 Y130.268 E22.1284
G1 X78.712 Y127.645 E22.26587
G1 X77.97 Y124.955 E22.40787
G1 X77.177 Y122.379 E22.54502
G1 X76.303 Y119.795 E22.68384
G1 X75.353 Y117.227 E22.82317
G1 X74.315 Y114.65 E22.96455
G1 X73.234 Y112.168 E23.10231
G1 X72.073 Y109.699 E23.24115
G1 X70.805 Y107.186 E23.38439
G1 X70.175 Y105.982 E23.45354
G1 X69.976 Y105.517 E23.47928
G1 X69.854 Y105.026 E23.50503
G1 X69.811 Y104.596 E23.52702
G1 X69.801 Y104.268 E23.54372
G1 X69.8 Y88.631 E24.33945
G1 X69.809 Y87.966 E24.3733
G1 X69.856 Y87.462 E24.39905
G1 X69.982 Y86.973 E24.42475
G1 X70.183 Y86.509 E24.45048
G1 X70.454 Y86.082 E24.47622
G1 X70.789 Y85.704 E24.50192
G1 X71.18 Y85.383 E24.52767
G1 F1500 E18.02767
;MESH:toggle_switch_v2.stl
G0 F9000 X77.807 Y92.634
G0 X76.747 Y91.633
G0 X76.282 Y93.406
G0 X76.28 Y94.088
G0 X76.452 Y94.757
G0 X76.782 Y95.358
G0 X77.252 Y95.859
G0 X77.832 Y96.228
G0 X78.36 Y96.399
G0 X79.544 Y96.6
;TYPE:WALL-INNER
G1 F1500 E24.52767
G1 F2700 X79.897 Y96.509 E24.54622
G1 X80.235 Y96.374 E24.56474
G1 X80.554 Y96.2 E24.58323
G1 X80.849 Y95.985 E24.60181
G1 X81.114 Y95.737 E24.62028
G1 X81.346 Y95.457 E24.63878
G1 X81.542 Y95.15 E24.65731
G1 X81.696 Y94.82 E24.67585
G1 X81.809 Y94.474 E24.69437
G1 X81.878 Y94.115 E24.71297
G1 X81.9 Y93.754 E24.73138
G1 X81.88 Y93.392 E24.74983
G1 X81.811 Y93.03 E24.76858
G1 X81.698 Y92.684 E24.7871
G1 X81.545 Y92.355 E24.80557
G1 X81.348 Y92.046 E24.82421
G1 X81.116 Y91.766 E24.84272
G1 X80.849 Y91.515 E24.86137
G1 X80.554 Y91.3 E24.87994
G1 X80.235 Y91.126 E24.89843
G1 X79.897 Y90.991 E24.91695
G1 X79.544 Y90.9 E24.93551
G1 X79.183 Y90.855 E24.95402
G1 X78.822 Y90.854 E24.97239
G1 X78.458 Y90.899 E24.99105
G1 X78.105 Y90.99 E25.0096
G1 X77.767 Y91.125 E25.02812
G1 X77.449 Y91.299 E25.04657
G1 X77.152 Y91.513 E25.0652
G1 X76.886 Y91.764 E25.08381
G1 X76.654 Y92.043 E25.10228
G1 X76.459 Y92.35 E25.12078
G1 X76.304 Y92.679 E25.13929
G1 X76.191 Y93.026 E25.15786
G1 X76.122 Y93.385 E25.17646
G1 X76.1 Y93.746 E25.19487
G1 X76.12 Y94.108 E25.21332
G1 X76.189 Y94.47 E25.23207
G1 X76.303 Y94.817 E25.25066
G1 X76.457 Y95.145 E25.2691
G1 X76.651 Y95.452 E25.28758
G1 X76.883 Y95.734 E25.30616
G1 X77.149 Y95.983 E25.3247
G1 X77.443 Y96.198 E25.34324
G1 X77.763 Y96.374 E25.36182
G1 X78.101 Y96.508 E25.38032
G1 X78.454 Y96.599 E25.39888
G1 X78.815 Y96.644 E25.41739
G1 X79.18 Y96.645 E25.43596
G1 X79.544 Y96.6 E25.45463
G0 F9000 X79.469 Y96.206
;TYPE:WALL-OUTER
G1 F2700 X79.773 Y96.128 E25.4706
G1 X80.064 Y96.012 E25.48654
G1 X80.339 Y95.861 E25.5025
G1 X80.594 Y95.676 E25.51854
G1 X80.822 Y95.462 E25.53445
G1 X81.022 Y95.221 E25.55039
G1 X81.191 Y94.957 E25.56634
G1 X81.323 Y94.673 E25.58227
G1 X81.421 Y94.374 E25.59829
G1 X81.48 Y94.065 E25.61429
G1 X81.499 Y93.753 E25.6302
G1 X81.482 Y93.44 E25.64615
G1 X81.423 Y93.13 E25.66221
G1 X81.325 Y92.831 E25.67822
G1 X81.193 Y92.548 E25.69411
G1 X81.024 Y92.282 E25.71015
G1 X80.824 Y92.04 E25.72613
G1 X80.594 Y91.824 E25.74218
G1 X80.339 Y91.639 E25.75822
G1 X80.064 Y91.488 E25.77418
G1 X79.773 Y91.372 E25.79012
G1 X79.469 Y91.294 E25.80609
G1 X79.157 Y91.255 E25.82209
G1 X78.846 Y91.254 E25.83792
G1 X78.533 Y91.293 E25.85397
G1 X78.229 Y91.371 E25.86994
G1 X77.938 Y91.487 E25.88588
G1 X77.663 Y91.638 E25.90185
G1 X77.407 Y91.822 E25.91789
G1 X77.178 Y92.038 E25.93391
G1 X76.978 Y92.279 E25.94985
G1 X76.81 Y92.543 E25.96577
G1 X76.677 Y92.827 E25.98173
G1 X76.579 Y93.126 E25.99774
G1 X76.52 Y93.435 E26.01375
G1 X76.501 Y93.747 E26.02966
G1 X76.518 Y94.06 E26.04561
G1 X76.577 Y94.37 E26.06167
G1 X76.675 Y94.669 E26.07768
G1 X76.808 Y94.952 E26.09359
G1 X76.976 Y95.217 E26.10956
G1 X77.176 Y95.46 E26.12557
G1 X77.405 Y95.675 E26.14156
G1 X77.658 Y95.86 E26.15751
G1 X77.934 Y96.011 E26.17352
G1 X78.225 Y96.127 E26.18946
G1 X78.529 Y96.205 E26.20543
G1 X78.841 Y96.244 E26.22143
G1 X79.156 Y96.245 E26.23746
G1 X79.469 Y96.206 E26.25351
G0 F9000 X79.663 Y96.157
G0 X79.771 Y96.584
G1 F1500 E19.75351
G0 F9000 X81.253 Y95.868
G0 X80.193 Y94.866
G0 X139.806 Y94.866
G0 X138.743 Y95.865
G0 X140.454 Y96.599
;TYPE:WALL-INNER
G1 F1500 E26.25351
G1 F2700 X140.815 Y96.644 E26.27202
G1 X141.18 Y96.645 E26.2906
G1 X141.544 Y96.6 E26.30926
G1 X141.897 Y96.509 E26.32781
G1 X142.235 Y96.374 E26.34634
G1 X142.554 Y96.2 E26.36483
G1 X142.849 Y95.985 E26.3834
G1 X143.114 Y95.737 E26.40187
G1 X143.346 Y95.457 E26.42038
G1 X143.54 Y95.15 E26.43886
G1 X143.696 Y94.821 E26.45739
G1 X143.809 Y94.474 E26.47596
G1 X143.878 Y94.115 E26.49456
G1 X143.9 Y93.754 E26.51296
G1 X143.88 Y93.392 E26.53141
G1 X143.811 Y93.03 E26.55017
G1 X143.699 Y92.683 E26.56872
G1 X143.543 Y92.354 E26.58725
G1 X143.348 Y92.048 E26.60572
G1 X143.117 Y91.766 E26.62427
G1 X142.849 Y91.515 E26.64295
G1 X142.554 Y91.3 E26.66153
G1 X142.235 Y91.126 E26.68002
G1 X141.897 Y90.991 E26.69854
G1 X141.544 Y90.9 E26.71709
G1 X141.183 Y90.855 E26.7356
G1 X140.822 Y90.854 E26.75397
G1 X140.458 Y90.899 E26.77264
G1 X140.105 Y90.99 E26.79119
G1 X139.767 Y91.125 E26.80971
G1 X139.449 Y91.299 E26.82816
G1 X139.152 Y91.513 E26.84678
G1 X138.886 Y91.764 E26.8654
G1 X138.654 Y92.043 E26.88386
G1 X138.46 Y92.35 E26.90234
G1 X138.304 Y92.679 E26.92087
G1 X138.191 Y93.026 E26.93944
G1 X138.122 Y93.385 E26.95804
G1 X138.1 Y93.746 E26.97645
G1 X138.12 Y94.108 E26.9949
G1 X138.189 Y94.47 E27.01365
G1 X138.301 Y94.817 E27.03221
G1 X138.457 Y95.146 E27.05074
G1 X138.652 Y95.452 E27.0692
G1 X138.883 Y95.734 E27.08775
G1 X139.149 Y95.983 E27.10629
G1 X139.443 Y96.198 E27.12483
G1 X139.763 Y96.374 E27.14341
G1 X140.101 Y96.508 E27.16191
G1 X140.454 Y96.599 E27.18047
G0 F9000 X140.529 Y96.205
;TYPE:WALL-OUTER
G1 F2700 X140.841 Y96.244 E27.19647
G1 X141.156 Y96.245 E27.2125
G1 X141.469 Y96.206 E27.22855
G1 X141.773 Y96.128 E27.24452
G1 X142.064 Y96.012 E27.26046
G1 X142.339 Y95.861 E27.27642
G1 X142.594 Y95.676 E27.29246
G1 X142.822 Y95.462 E27.30837
G1 X143.022 Y95.221 E27.32431
G1 X143.189 Y94.957 E27.3402
G1 X143.324 Y94.673 E27.3562
G1 X143.421 Y94.374 E27.3722
G1 X143.48 Y94.065 E27.38821
G1 X143.499 Y93.753 E27.40412
G1 X143.482 Y93.44 E27.42007
G1 X143.423 Y93.13 E27.43613
G1 X143.326 Y92.831 E27.45212
G1 X143.192 Y92.547 E27.4681
G1 X143.024 Y92.283 E27.48403
G1 X142.824 Y92.04 E27.50004
G1 X142.594 Y91.824 E27.5161
G1 X142.339 Y91.639 E27.53213
G1 X142.064 Y91.488 E27.54809
G1 X141.773 Y91.372 E27.56404
G1 X141.469 Y91.294 E27.58001
G1 X141.157 Y91.255 E27.59601
G1 X140.846 Y91.254 E27.61183
G1 X140.533 Y91.293 E27.62789
G1 X140.229 Y91.371 E27.64386
G1 X139.938 Y91.487 E27.6598
G1 X139.663 Y91.638 E27.67576
G1 X139.407 Y91.822 E27.69181
G1 X139.178 Y92.038 E27.70783
G1 X138.978 Y92.279 E27.72376
G1 X138.811 Y92.543 E27.73966
G1 X138.676 Y92.827 E27.75566
G1 X138.579 Y93.126 E27.77166
G1 X138.52 Y93.435 E27.78767
G1 X138.501 Y93.747 E27.80357
G1 X138.518 Y94.06 E27.81952
G1 X138.577 Y94.37 E27.83558
G1 X138.674 Y94.669 E27.85158
G1 X138.808 Y94.953 E27.86756
G1 X138.976 Y95.217 E27.88348
G1 X139.176 Y95.46 E27.8995
G1 X139.405 Y95.675 E27.91548
G1 X139.658 Y95.86 E27.93143
G1 X139.934 Y96.011 E27.94744
G1 X140.225 Y96.127 E27.96338
G1 X140.529 Y96.205 E27.97935
G0 F9000 X140.727 Y96.229
G0 X140.672 Y96.666
G1 F1500 E21.47935
G0 F9000 X140.895 Y95.38
G0 X140.69 Y105.165
G0 X140.69 Y103.69
G0 X140.632 Y104.059
G0 X136.572 Y104.072
G0 X136.4 Y131.4
;TYPE:WALL-INNER
G1 F1500 E27.97935
G1 F2700 X83.6 Y131.4 E30.66624
G1 X83.6 Y103.9 E32.06566
G1 X73.6 Y103.9 E32.57454
G1 X73.6 Y88.6 E33.35313
G1 X146.4 Y88.6 E37.05777
G1 X146.4 Y103.9 E37.83636
G1 X136.4 Y103.9 E38.34524
G1 X136.4 Y131.4 E39.74466
G0 F9000 X136.8 Y131.8
;TYPE:WALL-OUTER
G1 F2700 X83.2 Y131.8 E42.47226
G1 X83.2 Y104.3 E43.87168
G1 X73.2 Y104.3 E44.38056
G1 X73.2 Y88.2 E45.19986
G1 X146.8 Y88.2 E48.94521
G1 X146.8 Y104.3 E49.76451
G1 X136.8 Y104.3 E50.27339
G1 X136.8 Y131.8 E51.67281
G0 F9000 X136.6 Y131.8
G0 X136.36 Y131.36
G0 X136.01 Y131.01
;TYPE:SKIN
G1 F2700 X83.99 Y131.01 E54.32
G1 X83.99 Y103.51 E55.71942
G1 X73.99 Y103.51 E56.2283
G1 X73.99 Y88.99 E56.9672
G1 X146.01 Y88.99 E60.63215
G1 X146.01 Y103.51 E61.37105
G1 X136.01 Y103.51 E61.87993
G1 X136.01 Y131.01 E63.27935
G1 F1500 E56.77935
G0 F9000 X136.29 Y131.01
G0 X136.572 Y104.072
G0 X140.808 Y103.69
G0 X140.808 Y105.165
G0 X140.895 Y95.38
G0 X140.827 Y96.835
G0 X140.79 Y97.034
G1 F1500 E63.27935
G1 F2700 X141.203 Y97.035 E63.30036
G1 X141.617 Y96.984 E63.32159
G1 X142.018 Y96.88 E63.34267
G1 X142.401 Y96.727 E63.36366
G1 X142.763 Y96.53 E63.38463
G1 X143.098 Y96.286 E63.40572
G1 X143.399 Y96.005 E63.42668
G1 X143.662 Y95.687 E63.44768
G1 X143.883 Y95.339 E63.46865
G1 X144.059 Y94.965 E63.48969
G1 X144.187 Y94.572 E63.51072
G1 X144.266 Y94.164 E63.53187
G1 X144.29 Y93.756 E63.55267
G1 X144.268 Y93.345 E63.57361
G1 X144.189 Y92.933 E63.59496
G1 X144.062 Y92.539 E63.61603
G1 X143.885 Y92.165 E63.63708
G1 X143.664 Y91.818 E63.65802
G1 X143.402 Y91.499 E63.67902
G1 X143.098 Y91.214 E63.70023
G1 X142.763 Y90.97 E63.72132
G1 X142.401 Y90.773 E63.74229
G1 X142.018 Y90.62 E63.76328
G1 X141.617 Y90.516 E63.78436
G1 X141.208 Y90.465 E63.80534
G1 X140.799 Y90.464 E63.82615
G1 X140.385 Y90.515 E63.84738
G1 X139.984 Y90.619 E63.86846
G1 X139.601 Y90.772 E63.88944
G1 X139.241 Y90.968 E63.9103
G1 X138.903 Y91.211 E63.93149
G1 X138.601 Y91.497 E63.95265
G1 X138.338 Y91.813 E63.97357
G1 X138.117 Y92.161 E63.99455
G1 X137.941 Y92.535 E64.01559
G1 X137.813 Y92.928 E64.03662
G1 X137.734 Y93.336 E64.05777
G1 X137.71 Y93.744 E64.07857
G1 X137.732 Y94.155 E64.09951
G1 X137.811 Y94.567 E64.12086
G1 X137.938 Y94.961 E64.14192
G1 X138.115 Y95.335 E64.16298
G1 X138.336 Y95.682 E64.18392
G1 X138.598 Y96.001 E64.20492
G1 X138.899 Y96.284 E64.22595
G1 X139.233 Y96.528 E64.247
G1 X139.597 Y96.727 E64.26811
G1 X139.98 Y96.88 E64.28909
G1 X140.381 Y96.983 E64.31016
G1 X140.79 Y97.034 E64.33114
G1 F1500 E57.83114
G0 F9000 X140.808 Y96.755
G0 X138.743 Y95.865
G0 X139.806 Y94.866
G0 X80.518 Y94.354
G0 X81.874 Y94.89
G0 X81.435 Y95.521
G0 X81.662 Y95.687
G1 F1500 E64.33114
G1 F2700 X81.885 Y95.339 E64.35217
G1 X82.059 Y94.964 E64.37321
G1 X82.187 Y94.572 E64.39419
G1 X82.266 Y94.164 E64.41534
G1 X82.29 Y93.756 E64.43614
G1 X82.268 Y93.345 E64.45708
G1 X82.189 Y92.932 E64.47848
G1 X82.061 Y92.541 E64.49942
G1 X81.888 Y92.168 E64.52034
G1 X81.664 Y91.816 E64.54157
G1 X81.401 Y91.499 E64.56253
G1 X81.098 Y91.214 E64.5837
G1 X80.763 Y90.97 E64.60479
G1 X80.401 Y90.773 E64.62576
G1 X80.018 Y90.62 E64.64675
G1 X79.617 Y90.516 E64.66783
G1 X79.208 Y90.465 E64.68881
G1 X78.799 Y90.464 E64.70962
G1 X78.385 Y90.515 E64.73085
G1 X77.984 Y90.619 E64.75193
G1 X77.601 Y90.772 E64.77292
G1 X77.241 Y90.968 E64.79377
G1 X76.903 Y91.211 E64.81496
G1 X76.601 Y91.497 E64.83612
G1 X76.338 Y91.813 E64.85705
G1 X76.116 Y92.161 E64.87805
G1 X75.941 Y92.535 E64.89906
G1 X75.813 Y92.928 E64.9201
G1 X75.734 Y93.336 E64.94124
G1 X75.71 Y93.744 E64.96204
G1 X75.732 Y94.155 E64.98299
G1 X75.811 Y94.568 E65.00439
G1 X75.94 Y94.961 E65.02543
G1 X76.114 Y95.333 E65.04633
G1 X76.335 Y95.681 E65.06731
G1 X76.598 Y96.001 E65.08839
G1 X76.899 Y96.284 E65.10941
G1 X77.233 Y96.528 E65.13046
G1 X77.597 Y96.727 E65.15157
G1 X77.98 Y96.88 E65.17256
G1 X78.381 Y96.983 E65.19363
G1 X78.79 Y97.034 E65.2146
G1 X79.203 Y97.035 E65.23562
G1 X79.617 Y96.984 E65.25685
G1 X80.018 Y96.88 E65.27793
G1 X80.401 Y96.727 E65.29892
G1 X80.763 Y96.53 E65.31989
G1 X81.098 Y96.286 E65.34098
G1 X81.399 Y96.005 E65.36193
G1 X81.662 Y95.687 E65.38293
G1 F1500 E58.88293
G0 F9000 X81.435 Y95.521
G0 X80.657 Y96.362
G0 X79.876 Y95.129
G0 X80.657 Y105.165
G0 X80.657 Y103.69
G0 X83.782 Y103.718
G0 X83.815 Y126.599
G0 X84.462 Y131.29
G0 X84.462 Y130.848
G1 F1500 E65.38293
G1 F2700 X84.149 Y130.536 E65.40542
G0 F9000 X84.149 Y129.97
